!!!!SEGMENT: pl-wnifc--3111-n--001-001_sowinski-wojciech--grandes-etudes-de-concert-op-60-etude-d-extension.krn
!!!cenid: 18xx:3851
!!!COM: Sowiński, Wojciech
!!!COM-rismID: pe30008543
!!!CDT: ~1803-1880/03/05
!!!CNT: Polish
!!!GTL: Grandes Études de concert op. 60
!!!OTL: Étude d’extension
!!!OMV: 001
!!!PDT: 1843
!!!AGN: Secular; Etude
!!!YEC: Copyright 2022 Narodowy Instytut Fryderyka Chopina (https://polishscores.org)
!!!YEM: License CC-BY-4.0 (https://creativecommons.org/licenses/by/4.0)
!!!SMS-siglum: PL-Wnifc
!!!SMS-shelfmark: 3111/n
!!!SMS-shelfwork: 001-001 G
!!!SMS-variant:
!!!SMS-altvar:
!!!NIFC-rismSourceID: 1001141968
!!!NIFC-rismChildID: 1001141969
!!!NIFC-islandoraID: nifc:212151
!!!URL-pdf-islandora: https://repozytorium.nifc.pl/islandora/object/nifc%3A212151/datastream/PDF/view
!!!URL-scan: https://polish.musicsources.pl/pl/lokalizacje/galeria/druki-muzyczne/16829 @EN{Scan on Polish Music Sources Website} @PL{Skany w portalu Dziedzictwo Muzyki Polskiej w otwartym dostępie}
!!!IIIF:
!!!ONB-nifc:
!!!AIN: 2 piano
!!!key: A-
**kern	**fing	**dynam	**kern	**fing	**dynam
*part2	*	*	*part1	*	*
*staff2	*	*	*staff1	*	*
*I"Piano	*	*	*I"Piano	*	*
*Ipiano	*	*	*Ipiano	*	*
*ICklav	*	*	*ICklav	*	*
*clefF4	*	*	*clefG2	*	*
*k[b-e-a-d-]	*	*	*k[b-e-a-d-]	*	*
*A-:	*	*	*A-:	*	*
*M12/8	*	*	*M12/8	*	*
=1	=1	=1	=1	=1	=1
!	!	!	!LO:TX:t=P:problem:wg sugestii NIFC wstawiony pusty takt, bo wyskakiwał błąd walidacji	!	!
1.r	.	.	1.r	.	.
=2	=2	=2	=2	=2	=2
*^	*	*	*^	*	*
!	!	!	!	!LO:TX:a:t=1\nETUDE D'EXTENSION .	!	!	!
!	!	!	!	!LO:TX:b:t=ETUDE.	!	!	!
!	!	!	!	!LO:TX:b:B:t=No. 1.	!	!	!
!	!	!	!	!LO:TX:a:B:t=Allegretto con moto.	!	!	!
4AAA-/ 4AA-	4.ryy	.	.	(16e-/LL	4.e-/	.	mp
.	.	.	.	16cc/ 16ee-	.	.	.
.	.	.	.	16aa-/	.	.	.
.	.	.	.	16cc/ 16ee-	.	.	.
8r	.	.	.	16e-/	.	.	.
.	.	.	.	16cc/JJ 16ee-	.	.	.
*	*	*	*	*	*	*below	*
(8c'\L	4.ryy	.	.	16e-/LL	8e-\L	1	.
.	.	.	.	16cc/ 16ee-	.	.	.
8A-'\	.	.	.	16a-/	8a-\	1	.
.	.	.	.	16cc/ 16ee-	.	.	.
8E-'\J	.	.	.	16g/	8g\J	1	.
.	.	.	.	16cc/JJ 16ee-	.	.	.
4.AA-^/)	4.ryy	.	.	16b-^</LL	4.b-\	.	.
.	.	.	.	16cc/ 16ee-	.	.	.
.	.	.	.	16bb-/	.	.	.
.	.	.	.	16cc/ 16ee-	.	.	.
.	.	.	.	16b-/	.	.	.
.	.	.	.	16cc/JJ 16ee-	.	.	.
8E-/L	4.AA-\	.	.	16a-/LL	4.a-\	.	.
.	.	.	.	16cc/ 16ee-	.	.	.
(16F/L	.	.	.	16aa-/	.	.	.
16E-/	.	.	.	16cc/ 16ee-	.	.	p
16Dn/	.	.	.	16a-/	.	.	.
16E-/JJ)	.	.	.	16cc/JJ 16ee-	.	.	.
=3	=3	=3	=3	=3	=3	=3	=3
4.EE-/	4.ryy	.	.	16g/LL	4g\	.	.
.	.	.	.	16b-/ 16dd-	.	.	.
.	.	.	.	16gg/	.	.	.
.	.	.	.	16b-/ 16dd-	.	.	.
.	.	.	.	16f/	8f\	.	.
.	.	.	.	16b-/JJ 16dd-	.	.	.
[8E-/	8E-\L	.	.	16e-/LL	8e-\L	.	.
.	.	.	.	16b-/ 16dd-	.	.	.
4E-/_	8D-X\	.	.	16g/	8g\	.	.
.	.	.	.	16b-/ 16dd-	.	.	.
.	8BB-\J 8D-	.	.	16f/	8f\J	.	.
.	.	.	.	16b-/JJ 16dd-	.	.	.
4.C/ 4.E-]	4.AA-\	.	.	16f/LL	4.f\	.	.
.	.	.	.	16a-/ 16cc	.	.	.
!	!	!	!	!LO:TX:a:t=ALBERT SOWINSKI Op.60.	!	!	!
.	.	.	.	16ff/	.	.	.
.	.	.	.	16a-/ 16cc	.	.	.
.	.	.	.	16f/	.	.	.
.	.	.	.	16a-/JJ 16cc	.	.	.
8E-/L	4.AA-\	.	.	16e-/LL	4.e-\	.	.
.	.	.	.	16a-/ 16cc	.	.	.
(16F/L	.	.	.	16ee-/	.	.	.
16E-/	.	.	.	16a-/ 16cc	.	.	.
16Dn/	.	.	.	16e-/	.	.	.
16E-/JJ)	.	.	.	16a-/JJ) 16cc	.	.	.
!!LO:LB:g=original
=4	=4	=4	=4	=4	=4	=4	=4
4AA-/	4.ryy	.	.	(16e-/LL	4.e-\	.	.
.	.	.	.	16cc/ 16ee-	.	.	.
.	.	.	.	16aa-/	.	.	.
.	.	.	.	16cc/ 16ee-	.	.	.
8r	.	.	.	16e-/	.	.	.
.	.	.	.	16cc/JJ 16ee-	.	.	.
(8c\L	4.ryy	.	.	16e-/LL	8e-\L	.	.
.	.	.	.	16cc/ 16ee-	.	.	.
8A-\	.	.	.	16a-/	8a-\	.	.
.	.	.	.	16cc/ 16ee-	.	.	.
8E-\J)	.	.	.	16g/	8g\J	.	.
.	.	.	.	16cc/JJ 16ee-	.	.	.
4.AA-/	4.ryy	.	.	16b-/LL	4.b-\	.	sf >
.	.	.	.	16cc/ 16ee-	.	.	.
.	.	.	.	16bb-/	.	.	]
.	.	.	.	16cc/ 16ee-	.	.	.
.	.	.	.	16b-/	.	.	.
.	.	.	.	16cc/JJ 16ee-	.	.	.
8E-/L	4.AA-\	.	.	16a-/LL	4a-\	.	.
.	.	.	.	16cc/ 16ee-	.	.	.
(16F/L	.	.	.	16aa-/	.	.	.
16E-/	.	.	.	16cc/J 16ee-	.	.	.
16D-/	.	.	.	8a-/J)	8ryy	.	.
16C/JJ)	.	.	.	.	.	.	.
*v	*v	*	*	*	*	*	*
=5	=5	=5	=5	=5	=5	=5
4.BB-/	.	.	(16b-/LL	4.b-\	.	sf
*	*	*	*ped	*	*	*
.	.	.	16gg/ 16bb-	.	2 5	.
.	.	.	16eee-/	.	.	.
.	.	.	16gg/ 16bb-	.	.	.
.	.	.	16b-/	.	.	.
*	*	*	*Xped	*	*	*
.	.	.	16gg/JJ 16bb-	.	.	.
8B-'\L	.	.	16b-/LL	4b-\	.	.
.	.	.	16ff/ 16aa-	.	.	.
16An\L	.	.	16dddn/	.	.	.
16B-\	.	.	16ff/ 16aa-	.	.	.
16c\	.	.	16b-/	8b-\	.	.
16B-\JJ	.	.	16ff/JJ 16aa-	.	.	.
*ped	*	*	*	*	*	*
(4.B-\ [4.f [4.a-X	.	.	16b-/LL	4.b-\	.	.
.	.	.	16ff/ 16aa-	.	.	.
!	!	!	!LO:TX:b:i:t=smorz.	!	!	!
.	.	.	16ddd-X/	.	.	.
.	.	.	16ff/ 16aa-	.	.	.
.	.	.	16b-/	.	.	.
.	.	.	16ff/JJ 16aa-	.	.	.
4B-\) 4f] 4a-]	.	.	16b-/LL	4.b-\	.	.
.	.	.	16ff/ 16aa-	.	.	.
.	.	.	16ddd-/	.	.	.
.	.	.	16ff/ 16aa-	.	.	.
8r	.	.	16b-/	.	.	.
.	.	.	16ff/JJ) 16aa-	.	.	.
*Xped	*	*	*	*	*	*
!!LO:LB:g=original
=6	=6	=6	=6	=6	=6	=6
(4.EE-/	.	.	(16b-/LL	4.b-\	.	sf
!	!	!	!	!	!	!LO:HP:b:t=cres
.	.	.	16ee-/ 16gg	.	.	<
.	.	.	16ddd-X/	.	.	.
.	.	.	16ee-/ 16gg	.	.	.
.	.	.	16b-/	.	.	.
.	.	.	16ee-/JJ 16gg	.	.	.
16E-\LL)	.	.	16ddd-/LL	8ddd-^\L	.	.
(16E-\	.	.	16ee-/ 16gg	.	.	.
16F\	.	.	16ccc/	8ccc^\	.	.
16E-\	.	.	16ee-/ 16gg	.	.	.
16Dn\	.	.	16bb-/	8bb-^\J	.	.
16E-\JJ)	.	.	16ee-/JJ 16gg	.	.	.
(4.AA-/	.	.	16b-/LL	4.b-\	.	>
.	.	.	16cc/ 16ee-	.	.	.
.	.	.	16bb-/	.	.	.
.	.	.	16cc/ 16ee-	.	.	]
.	.	.	16b-/	.	.	.
.	.	.	16cc/JJ 16ee-	.	.	.
8A-\)	.	.	16a-/LL	4.a-\	.	p
.	.	.	16cc/ 16ee-	.	.	.
8r	.	.	16aa-/	.	.	.
.	.	.	16cc/ 16ee-	.	.	.
8r	.	.	16a-/	.	.	.
.	.	.	16cc/JJ) 16ee-	.	.	.
=7	=7	=7	=7	=7	=7	=7
!	!	!LO:DY:a	!	!	!	!
!	!	!LO:HP:a	!	!	!	!
(8qqBBB-/	.	sf >	.	.	.	.
4.BB-/)	.	]]	(16g/LL	4.g\	.	.
.	.	.	16b-/ 16ee-	.	.	.
.	.	.	16gg/	.	.	.
.	.	.	16b-/ 16ee-	.	.	.
.	.	.	16g/	.	.	.
.	.	.	16b-/JJ 16ee-	.	.	.
16B-'\LL	.	.	16aa-/LL	8a-^\L	.	.
(16B-\	.	.	16b-/	.	.	.
16An\	.	.	16gg/	8g^\	.	.
16B-\	.	.	16b-/	.	.	.
16c\	.	.	16ff/	8f^\J	.	.
16B-\JJ)	.	.	16b-/JJ	.	.	.
4.E-\	.	.	16f/LL	4.f\	.	sf
.	.	.	16a-/ 16b-	.	.	.
.	.	.	16ff/	.	.	.
.	.	.	16a-/ 16b-	.	.	.
.	.	.	16f/	.	.	.
.	.	.	16a-/JJ 16b-	.	.	.
4ryy	.	.	16e-/LL	4e-\	.	.
.	.	.	16g/ 16b-	.	.	.
.	.	.	16ee-/	.	.	.
.	.	.	16g/ 16b-	.	.	.
8r	.	.	16e-/	8ryy	.	.
.	.	.	16g/JJ) 16b-	.	.	.
!!LO:LB:g=original
=8	=8	=8	=8	=8	=8	=8
*^	*	*	*	*	*	*
4.ryy	[>4.EE-/ 4.D-X	.	.	(16e-/LL	4e-\	.	sf
.	.	.	.	16g/ 16b-	.	.	.
.	.	.	.	16ee-/	.	.	.
.	.	.	.	16g/ 16b-	.	.	.
.	.	.	.	16e-/	8ryy	.	.
.	.	.	.	16g/JJ 16b-	.	.	.
(16D-/LL	4.EE-\]	.	.	16e-/LL	8e-\L	.	.
16D-/	.	.	.	16ee-/	.	.	.
16C/	.	.	.	16f/	8f\	.	.
16D-/	.	.	.	16ee-/	.	.	.
16E-/	.	.	.	16g/	8g\J	.	.
16D-/JJ)	.	.	.	16ee-/JJ	.	.	.
(4.AA-/	2.ryy	.	.	16b-/LL	4.b-\	.	sf
.	.	.	.	16cc/ 16ee-	.	.	.
.	.	.	.	16bb-/	.	.	.
.	.	.	.	16cc/ 16ee-	.	.	.
.	.	.	.	16b-/	.	.	.
.	.	.	.	16cc/JJ 16ee-	.	.	.
8A-\)	.	.	.	16a-/LL	4.a-\	.	p
.	.	.	.	16cc/ 16ee-	.	.	.
8r	.	.	.	16aa-/	.	.	.
.	.	.	.	16cc/ 16ee-	.	.	.
8r	.	.	.	16a-/	.	.	.
.	.	.	.	16cc/JJ) 16ee-	.	.	.
*v	*v	*	*	*	*	*	*
=9	=9	=9	=9	=9	=9	=9
(4.FF/	.	.	(16an/LL	4.a\	.	sf
.	.	.	16cc/ 16ee-	.	.	.
.	.	.	16aan/	.	.	.
.	.	.	16cc/ 16ee-	.	.	.
.	.	.	16a/	.	.	.
.	.	.	16cc/JJ 16ee-	.	.	.
16F'\LL)	.	.	16f/LL	8f\L	.	.
(16F\	.	.	16cc/ 16ee-	.	.	.
!	!	!	!	!	!	!LO:HP:b:t=cres
16En\	.	.	16g/	8g\	.	<
16F\	.	.	16cc/ 16ee-	.	.	.
16E-X\	.	.	16a/	8a\J	.	.
16F\JJ)	.	.	16cc/JJ 16ee-	.	.	.
(4.BB-/	.	.	16cc/LL	4.cc\	.	sf
.	.	.	16dd-/ 16ff	.	.	.
.	.	.	16ccc/	.	.	.
.	.	.	16dd-/ 16ff	.	.	.
.	.	.	16cc/	.	.	.
.	.	.	16dd-/JJ 16ff	.	.	.
8B-'\)	.	.	16b-/LL	4.b-\	.	p
.	.	.	16dd-/ 16ff	.	.	.
8r	.	.	16bb-/	.	.	.
.	.	.	16dd-/ 16ff	.	.	.
8r	.	.	16b-/	.	.	.
.	.	.	16dd-/JJ) 16ff	.	.	.
!!LO:LB:g=original
=10	=10	=10	=10	=10	=10	=10
*^	*	*	*	*	*	*
(4E-/	8EE-\L	.	.	(16bb-/LL	8b-^\L	.	.
.	.	.	.	16dd-/	.	.	.
.	8FF^>\	.	.	16aa-/	8a-^\	.	.
.	.	.	.	16cc/	.	.	.
8D-/	8GG\J	.	.	16gg/	8g^\J	.	.
.	.	.	.	16b-/JJ	.	.	.
4E-/)	8GG\L 8BB-	.	.	16ddd-/LL	8dd-^\L	.	sf
.	.	.	.	16ff/	.	.	.
.	8AA-\	.	.	16ccc/	8cc^\	.	.
.	.	.	.	16ee-/	.	.	.
8G/	8BB-\J	.	.	16bb-/	8b-^\J	.	.
.	.	.	.	16dd-/JJ	.	.	.
4.C\ 4.E-	4.ryy	.	.	16a-/LL	4a-\	.	.
.	.	.	.	16cc/ 16ee-	.	.	.
.	.	.	.	16aa-/	.	.	.
.	.	.	.	16cc/ 16ee-	.	.	.
.	.	.	.	16a-/	8ryy	.	.
.	.	.	.	16cc/JJ 16ee-	.	.	.
4.DDn/ 4.Dn	4.r	.	.	16f/LL	4.f^\	.	.
.	.	.	.	16a-X/ 16bn	.	.	.
.	.	.	.	16ff/	.	.	.
.	.	.	.	16a-/ 16b	.	.	.
.	.	.	.	16f/	.	.	.
.	.	.	.	16a-/JJ 16b	.	.	.
=11	=11	=11	=11	=11	=11	=11	=11
4.ryy	4.EE-/ [4.E-	.	.	16e-/LL	8e-\L	.	.
.	.	.	.	16cc/ 16ee-	.	.	.
.	.	.	.	16e-/	8e-\	.	<
.	.	.	.	16cc/ 16ee-	.	.	.
.	.	.	.	16f/	8f\J	.	[
.	.	.	.	16cc/JJ 16ee-	.	.	.
8B-/L	4.E-\]	.	.	16g/LL	8g\L	.	>
.	.	.	.	16b-/ 16gg	.	.	.
8c/	.	.	.	16a-/	8a-\	.	]
.	.	.	.	16cc/ 16aa-	.	.	.
8d-/J	.	.	.	16b-/	8b-\J	.	.
.	.	.	.	16dd-/JJ 16bb-	.	.	.
4.c/	4.A-\	.	.	16a-/LL	4a-\	.	p
.	.	.	.	16cc/ 16ee-	.	.	.
.	.	.	.	16aa-/	.	.	.
.	.	.	.	16cc/ 16ee-	.	.	.
.	.	.	.	16a-/	8r	.	.
.	.	.	.	16cc/JJ 16ee-	.	.	.
4r	4ryy	.	.	16a-/LL	4a-\	.	.
.	.	.	.	16cc/ 16ee-	.	.	.
.	.	.	.	16aa-/	.	.	.
.	.	.	.	16cc/ 16ee-	.	.	.
8r	8ryy	.	.	16a-/	8r	.	.
.	.	.	.	16cc/JJ) 16ee-	.	.	.
!!LO:LB:g=original
=12	=12	=12	=12	=12	=12	=12	=12
4.ryy	4.CC/ [4.C	15	.	(16e-/LL	4.e-\	.	f
.	.	.	.	16cc/ 16ee-	.	.	.
.	.	.	.	16gg/	.	.	.
.	.	.	.	16cc/ 16ee-	.	.	.
.	.	.	.	16e-/	.	.	.
.	.	.	.	16cc/JJ 16ee-	.	.	.
8G/L 8c	4.C\]	.	.	16e-/LL	8e-\L	.	.
.	.	.	.	16cc/ 16ee-	.	.	.
8E-/ 8G	.	.	.	16f/	8f\	.	<
.	.	.	.	16cc/ 16ee-	.	.	.
8C/J 8E-	.	.	.	16f#X/	8f#\J	.	[
.	.	.	.	16cc/JJ 16ee-	.	.	.
4.ryy	[>4.C\ [>4.F [4.G [4.Bn	.	.	16g/LL	4.g\	.	.
.	.	.	.	16bn/ 16ddn	.	.	.
.	.	.	.	16gg/	.	.	.
.	.	.	.	16b/ 16dd	.	.	.
.	.	.	.	16g/	.	.	.
.	.	.	.	16b/JJ 16dd	.	.	.
16r	4C\] 4F] 4G] 4B]	.	.	16dny/LL	4.dny\	.	.
(16G/LL	.	.	.	16b/ 16dd	.	.	.
16F#X/	.	.	.	16gg/	.	.	.
16G/	.	.	.	16b/ 16dd	.	.	.
16A-/	8ryy	.	.	16d/	.	.	.
16G/JJ)	.	.	.	16b/JJ 16dd	.	.	.
=13	=13	=13	=13	=13	=13	=13	=13
4r	4.CC/ [>4.C	.	.	16e-/LL	4e-\	.	.
.	.	.	.	16cc/ 16ee-	.	.	.
.	.	.	.	16gg/	.	.	.
.	.	.	.	16cc/ 16ee-	.	.	.
8ryy	.	.	.	16e-/	8ryy	.	.
.	.	.	.	16cc/JJ 16ee-	.	.	.
8G/L 8c	4.C\]	.	.	16e-/LL	8e-\L	.	<
.	.	.	.	16cc/ 16ee-	.	.	.
8E-/ 8G	.	.	.	16f/	8f\	.	.
.	.	.	.	16cc/ 16ee-	.	.	.
8C/J 8E-	.	.	.	16f#X/	8f#\J	.	[
.	.	.	.	16cc/JJ 16ee-	.	.	.
[>4.C\ [>4.F [4.G [4.Bn	4.ryy	.	.	16g/LL	4g\	.	.
.	.	.	.	16bn/ 16ddn	.	.	.
.	.	.	.	16gg/	.	.	.
.	.	.	.	16b/ 16dd	.	.	.
.	.	.	.	16g/	8ryy	.	.
.	.	.	.	16b/JJ 16dd	.	.	.
4C\] 4F] 4G] 4B]	4.ryy	.	.	16g/LL	4g\	.	.
.	.	.	.	16b/ 16dd	.	.	.
.	.	.	.	16gg/	.	.	.
.	.	.	.	16b/ 16dd	.	.	.
8r	.	.	.	16g/	8ryy	.	.
.	.	.	.	16b/JJ) 16dd	.	.	.
!!LO:PB:g=original
=14	=14	=14	=14	=14	=14	=14	=14
4.C\ [4.c	4.ryy	.	.	(16g/LL	4g\	.	.
.	.	.	.	16b-/ 16cc	.	.	.
.	.	.	.	16gg/	.	.	.
.	.	.	.	16b-/ 16cc	.	.	.
.	.	.	.	16g/	8ryy	.	.
.	.	.	.	16b-/JJ 16cc	.	.	.
4.c/]	8C\L 8c	.	.	16en/LL	8e\L	.	.
.	.	.	.	16b-/ 16cc	.	.	.
.	8Dn\	.	.	16f/	8f\	.	<
.	.	.	.	16b-/ 16cc	.	.	.
.	8En\J	.	.	16g/	8g\J	.	[
.	.	.	.	16b-/JJ 16cc	.	.	.
(4.F/	4.F\	.	.	16g/LL	4.g\	.	sf >
.	.	.	.	16b-/ 16cc	.	.	]]
.	.	.	.	16gg/	.	.	.
.	.	.	.	16b-/ 16cc	.	.	.
.	.	.	.	16g/	.	.	.
.	.	.	.	16b-/JJ 16cc	.	.	.
4FF/)	4.ryy	.	.	16f/LL	4f\	.	.
.	.	.	.	16a-/ 16cc	.	.	.
.	.	.	.	16ff/	.	.	.
.	.	.	.	16a-/ 16cc	.	.	.
8r	.	.	.	16f/	8r	.	.
.	.	.	.	16a-/JJ) 16cc	.	.	.
=15	=15	=15	=15	=15	=15	=15	=15
.	8qFF/	.	.	.	.	.	.
4F/	4.F\	.	.	(16f/LL	4f\	.	p
.	.	.	.	16a-/ 16cc	.	.	.
.	.	.	.	16ff/	.	.	.
.	.	.	.	16a-/ 16cc	.	.	.
8c/	.	.	.	16f/	8ryy	.	.
.	.	.	.	16a-/JJ 16cc	.	.	.
4.ryy	4A-\	.	.	16f/LL	8f\L	.	.
.	.	.	.	16a-/ 16cc	.	.	.
.	.	.	.	16g-X/	8g-\	.	.
.	.	.	.	16a-/ 16cc	.	.	.
.	8F\	.	.	16gn/	8g\J	.	.
.	.	.	.	16a-/JJ 16cc	.	.	.
4.ryy	(4E-\	.	.	16g-X/LL	4g-\	.	.
.	.	.	.	16cc/ 16ee-	.	.	.
.	.	.	.	16aa-/	.	.	.
.	.	.	.	16cc/ 16ee-	.	.	.
.	8C\)	.	.	16a-/	8a-\	.	.
.	.	.	.	16cc/JJ 16ee-	.	.	.
4.ryy	4A-\	.	.	16e-/LL	4e-\	.	.
.	.	.	.	16cc/ 16ee-	.	.	.
.	.	.	.	16aa-/	.	.	.
.	.	.	.	16cc/ 16ee-	.	.	.
.	8r	.	.	16e-/	8r	.	.
.	.	.	.	16cc/JJ) 16ee-	.	.	.
!!LO:LB:g=original
=16	=16	=16	=16	=16	=16	=16	=16
.	8qqFF/	.	.	.	.	.	.
8F/L	4.F\	.	.	(16f/LL	4.f\	.	.
.	.	.	.	16a-/ 16dd-	.	.	.
(8d-/	.	.	.	16ff/	.	.	.
.	.	.	.	16a-/ 16dd-	.	.	.
8A-/J	.	.	.	16f/	.	.	.
.	.	.	.	16a-/JJ 16dd-	.	.	.
4.d-/)	4.F\	.	.	16f/LL	8f\L	.	.
.	.	.	.	16dd-/ 16ff	.	.	.
.	.	.	.	16g-X/	8g-\	.	.
.	.	.	.	16dd-/ 16ff	.	.	.
.	.	.	.	16a-/	8a-\J	.	.
.	.	.	.	16dd-/JJ 16ff	.	.	.
2.G-X\ 2.d-	4.ryy	.	.	16b-/LL	4.b-\	.	.
.	.	.	.	16dd-/ 16gg-X	.	.	.
.	.	.	.	16bb-/	.	.	.
.	.	.	.	16dd-/ 16gg-	.	.	.
.	.	.	.	16b-/	.	.	.
.	.	.	.	16dd-/JJ 16gg-	.	.	.
.	4r	.	.	16b-/LL	4.b-\	.	.
.	.	.	.	16dd-/ 16gg-X	.	.	.
.	.	.	.	16bb-/	.	.	.
.	.	.	.	16dd-/ 16gg-	.	.	.
.	8r	.	.	16b-/	.	.	.
.	.	.	.	16dd-/JJ 16gg-	.	.	.
=17	=17	=17	=17	=17	=17	=17	=17
.	8qqGG-X/	.	.	.	.	.	.
4.G-X/	8G-\L	.	.	16b-/LL	4.b-\	.	f
.	.	.	.	16dd-/ 16gg-X	.	.	.
.	8D-\	.	.	16bb-/	.	.	.
.	.	.	.	16dd-/ 16gg-	.	.	.
.	8BB-\J	.	.	16b-/	.	.	.
.	.	.	.	16dd-/JJ 16gg-	.	.	.
4GG-/	4.ryy	.	.	16b-/LL	8b-\L	.	.
.	.	.	.	16dd-/ 16bb-	.	.	.
.	.	.	.	16bn/	8b\	.	.
.	.	.	.	16dd-/ 16bb-	.	.	.
8r	.	.	.	16cc/	8cc\J	.	.
.	.	.	.	16dd-/JJ 16bb-	.	.	.
4.FF/ 4.F	2.ryy	.	.	16dd-/LL	4.dd-\	.	.
.	.	.	.	16ff/ 16aa-	.	.	.
.	.	.	.	16ddd-/	.	.	.
.	.	.	.	16ff/ 16aa-	.	.	.
.	.	.	.	16dd-/	.	.	.
.	.	.	.	16ff/JJ 16aa-	.	.	.
4D-/	.	.	.	16a-/LL	8a-\	.	.
.	.	.	.	16ff/ 16aa-	.	.	.
.	.	.	.	16ddd-/	8r	.	.
.	.	.	.	16ff/ 16aa-	.	.	.
8r	.	.	.	16a-/	8r	.	.
.	.	.	.	16ff/JJ) 16aa-	.	.	.
!!LO:LB:g=original
=18	=18	=18	=18	=18	=18	=18	=18
8qqFF#X/	.	.	.	.	.	.	.
8F#X\L	4.F#\	.	.	(16an/LL	4.a\	.	p
.	.	.	.	16cc#X/ 16ff#X	.	.	.
8C#X\	.	.	.	16aan/	.	.	.
.	.	.	.	16cc#/ 16ff#	.	.	.
8AAn\J	.	.	.	16a/	.	.	.
.	.	.	.	16cc#/JJ 16ff#	.	.	.
4.FF#/	4.ryy	.	.	16a/LL	8a\L	.	.
.	.	.	.	16cc#X/ 16aa	.	.	.
.	.	.	.	16bn/	8b\	.	.
.	.	.	.	16cc#/ 16aa	.	.	.
.	.	.	.	16ccn/	8cc\J	.	.
.	.	.	.	16cc#X/JJ 16aa	.	.	.
4.FFn^>/ 4.Fn	4.ryy	.	.	16dd-/LL	4.dd-\	.	.
.	.	.	.	16ffn/ 16aa-X	.	.	.
.	.	.	.	16ddd-/	.	.	.
.	.	.	.	16ff/ 16aa-	.	.	.
.	.	.	.	16dd-/	.	.	.
.	.	.	.	16ff/JJ 16aa-	.	.	.
4D-X/	4.ryy	.	.	16dd-/LL	4.dd-\	.	.
.	.	.	.	16ff/ 16aa-	.	.	.
.	.	.	.	16ddd-/	.	.	.
.	.	.	.	16ff/ 16aa-	.	.	.
8r	.	.	.	16dd-/	.	.	.
.	.	.	.	16ff/JJ) 16aa-	.	.	.
*	*	*	*	*v	*v	*	*
=19	=19	=19	=19	=19	=19	=19
16AA-/LL	4.ryy	.	.	8ccn^\L 8cccn	.	f
16GG/	.	.	.	.	.	.
16AA-/	.	.	.	8b-^\ 8bb-	.	.
16BB-/	.	.	.	.	.	.
16C/	.	.	.	8a-^\J 8aa-	.	.
16D-/JJ	.	.	.	.	.	.
16E-\LL	4.ryy	.	.	8gg-X^\L 8ggg-X	.	.
16F\	.	.	.	.	.	.
16G\	.	.	.	8ff^\ 8fff	.	.
16A-\	.	.	.	.	.	.
16B-\	.	.	.	8ee-^\J 8eee-	.	.
16c\JJ	.	.	.	.	.	.
16F^/LL	4.F\	.	.	(>(4ee-\ (4eee-	.	sf
16d-/	.	.	.	.	.	.
16c/	.	.	.	.	.	.
16d-/	.	.	.	.	.	.
16f/	.	.	.	[8dd-\)) [8ddd-)	.	.
16d-/JJ	.	.	.	.	.	.
16Gn/LL	4.G\	.	.	8dd-\L] 8ddd-]	.	.
16d-/	.	.	.	.	.	.
16e-/	.	.	.	8cc\ 8ccc	.	.
16d-/	.	.	.	.	.	.
16f-X/	.	.	.	[>8b-\J [8bb-	.	.
16e-/JJ	.	.	.	.	.	.
*v	*v	*	*	*	*	*
!!LO:LB:g=original
=20	=20	=20	=20	=20	=20
16A-\LL	.	.	(8b-\L] 8bb-]	.	<
16fn\	.	.	.	.	.
16d-\	.	.	8a-\ 8aa-	.	.
16A-\	.	.	.	.	.
16F\	.	.	8ff\J) 8fff	.	[
16D-\JJ	.	.	.	.	.
16AA-\LL	.	.	((>4ff\ (4fff	.	>
16E-\	.	.	.	.	.
16A-\	.	.	.	.	.
16c\	.	.	.	.	.
16B--\	.	.	8ee-\)) 8eee-)	.	]
16c\JJ	.	.	.	.	.
16D-\LL	.	.	4.dd-\ 4.ddd-	.	p
16A-\	.	.	.	.	.
16f-X\	.	.	.	.	.
16A-\	.	.	.	.	.
16f-\	.	.	.	.	.
16A-\JJ	.	.	.	.	.
16D-\LL	.	.	4r	.	.
16A-\	.	.	.	.	.
16f-\	.	.	.	.	.
16A-\	.	.	.	.	.
16f-\	.	.	8r	.	.
16A-\JJ	.	.	.	.	.
=21||	=21||	=21||	=21||	=21||	=21||
*k[f#c#g#d#]	*	*	*k[f#c#g#d#]	*	*
*c#:	*	*	*c#:	*	*
*ped	*	*	*	*	*
*^	*	*	*	*	*
(16C#/LL	4.C#\	.	.	8r	.	p
16G#/	.	.	.	.	.	.
!	!	!	!	!LO:TX:b:i:t=dolente	!	!
16F##X/	.	.	.	8ee'\L 8eee	.	.
16G#/	.	.	.	.	.	.
16A/	.	.	.	8ee'\J 8eee	.	.
16G#/JJ)	.	.	.	.	.	.
(16C#/LL	4.C#\	.	.	8ee'\L 8eee	.	.
16G#/	.	.	.	.	.	.
16F##/	.	.	.	8ff#'\ 8fff#	.	.
16G#/	.	.	.	.	.	.
16A/	.	.	.	8ff##X'\J 8fff##X	.	.
*Xped	*	*	*	*	*	*
16G#/JJ)	.	.	.	.	.	.
*ped	*	*	*	*	*	*
(16BB#X/LL	4.BB#\	.	.	((4.gg#^^\ 4.ggg#	.	.
16G#/	.	.	.	.	.	.
16F##/	.	.	.	.	.	.
16G#/	.	.	.	.	.	.
16A/	.	.	.	.	.	.
16G#/JJ)	.	.	.	.	.	.
(16BB#/LL	4.BB#\	.	.	4dd#\)) 4ddd#	.	.
16G#/	.	.	.	.	.	.
16F##/	.	.	.	.	.	.
16G#/	.	.	.	.	.	.
16A/	.	.	.	8r	.	.
16G#/JJ)	.	.	.	.	.	.
*Xped	*	*	*	*	*	*
!!LO:LB:g=original
=22	=22	=22	=22	=22	=22	=22
*ped	*	*	*	*	*	*
*	*	*	*	*^	*	*
8G#/L	4.C#\	.	.	(16ccc#\LL 16eee	4.ryy	.	p
.	.	.	.	16gg#\	.	.	.
8e^/	.	.	.	16ff##X\	.	.	.
.	.	.	.	16gg#\	.	.	.
8e^/J	.	.	.	16aa\	.	.	.
.	.	.	.	16gg#\JJ	.	.	.
8e^/L	[4.G#\	.	.	16ee/LL	8ee\L	.	.
.	.	.	.	16eee/	.	.	.
8f#^/	.	.	.	16dd#/	8dd#\	.	.
.	.	.	.	16ddd#/	.	.	.
8f##X^/J	.	.	.	16cc#/	8cc#\J	.	.
.	.	.	.	16ccc#/JJ	.	.	.
*Xped	*	*	*	*	*	*	*
!	!	!	!LO:DY:a	!	!	!	!
(4.g#^/	4G#\]	.	sf	16b#X/LL	4.ryy	.	.
.	.	.	.	16bb#X/	.	.	.
.	.	.	.	16gg#/	.	.	.
.	.	.	.	16bb#/	.	.	.
.	8ryy	.	.	16dd#/	.	.	.
.	.	.	.	16bb#/JJ	.	.	.
4G#\)	4.ryy	.	.	16b#/LL	4.ryy	.	.
.	.	.	.	16bb#/	.	.	.
.	.	.	.	16dd#/	.	.	.
.	.	.	.	16bb#/	.	.	.
8r	.	.	.	16gg#/	.	.	.
.	.	.	.	16bb#/JJ)	.	.	.
*	*	*	*	*v	*v	*	*
=23	=23	=23	=23	=23	=23	=23
(16E/LL	4.E\	.	.	8r	.	.
16B/	.	.	.	.	.	.
*	*	*	*	*8va	*	*
16A#X/	.	.	.	(8gg#'\L 8ggg#	.	.
16B/	.	.	.	.	.	.
16c#/	.	.	.	8gg#'\J 8ggg#	.	.
16B/JJ)	.	.	.	.	.	.
(16E/LL	4.E\	.	.	8gg#'\L 8ggg#	.	.
16B/	.	.	.	.	.	.
16A#/	.	.	.	8aa'\ 8aaa	.	.
16B/	.	.	.	.	.	.
16c#/	.	.	.	8aa#X'\J) 8aaa#X	.	.
16B/JJ)	.	.	.	.	.	.
(16D#/LL	4.D#\	.	.	(4.bb^\ 4.bbb	.	.
16B/	.	.	.	.	.	.
16A#/	.	.	.	.	.	.
16B/	.	.	.	.	.	.
16c#/	.	.	.	.	.	.
16B/JJ)	.	.	.	.	.	.
(16D#/LL	4.D#\	.	.	4ff#\) 4fff#	.	.
16B/	.	.	.	.	.	.
16A#/	.	.	.	.	.	.
16B/	.	.	.	.	.	.
16c#/	.	.	.	8r	.	.
16B/JJ)	.	.	.	.	.	.
!!LO:LB:g=original
=24	=24	=24	=24	=24	=24	=24
*	*^	*	*	*^	*	*
4.B/ 4.e	8ryy	4.E\	.	.	(16gggn/LL	4.ggn\	.	.
.	.	.	.	.	16bb/	.	.	.
.	8Gn^>\L	.	.	.	16aa#X/	.	.	.
.	.	.	.	.	16bb/	.	.	.
.	8G^>\J	.	.	.	16cccn/	.	.	.
.	.	.	.	.	16bb/JJ	.	.	.
4.ryy	8G^\L	4.ryy	.	.	16gg/LL	8gg\L	.	.
.	.	.	.	.	16eee/ 16ggg	.	.	.
.	8A^\	.	.	.	16ff#/	8ff#\	.	.
.	.	.	.	.	16ddd#/ 16fff#	.	.	.
.	8A#X^\J	.	.	.	16ee/	8ee\J	.	.
.	.	.	.	.	16ggn/JJ 16eee	.	.	.
4.ryy	(4.B\	2.ryy	.	.	16ee/LL	4.ee\	.	sf
.	.	.	.	.	16gg/ 16bb	.	.	.
.	.	.	.	.	16eee/	.	.	.
.	.	.	.	.	16gg/ 16bb	.	.	.
.	.	.	.	.	16ee/	.	.	.
.	.	.	.	.	16gg/JJ 16bb	.	.	.
4.ryy	4BB/)	.	.	.	16dd#/LL	4.dd#\	.	.
.	.	.	.	.	16ff#/ 16bb	.	.	.
.	.	.	.	.	16ddd#/	.	.	.
.	.	.	.	.	16ff#/ 16bb	.	.	.
.	8r	.	.	.	16dd#/	.	.	.
.	.	.	.	.	16bb/JJ)	.	.	.
*v	*v	*v	*	*	*	*	*	*
*	*	*	*v	*v	*	*
*	*	*	*X8va	*	*
=25	=25	=25	=25	=25	=25
*^	*	*	*^	*	*
*ped	*	*	*	*	*	*	*
.	8qqGGn/	.	.	.	.	.	.
8Gn/L	4G\	.	.	(16b/LL	4b\	.	p
!	!	!	!	!LO:TX:b:i:t=dolce	!	!	!
.	.	.	.	16ddn/ 16ggn	.	.	.
8dn/	.	.	.	16bb/	.	.	.
.	.	.	.	16dd/ 16gg	.	.	.
8B/J	8ryy	.	.	16b/	8r	.	.
.	.	.	.	16dd/JJ 16gg	.	.	.
4.ryy	4.G\	.	.	16b/LL	4b\	.	.
.	.	.	.	16gg/ 16bb	.	.	.
.	.	.	.	16ccn/	.	.	.
.	.	.	.	16gg/ 16bb	.	.	.
.	.	.	.	16cc#X/	8r	.	.
*Xped	*	*	*	*	*	*	*
.	.	.	.	16gg/JJ 16bb	.	.	.
*ped	*	*	*	*	*	*	*
(4.d/	4.F#\	.	.	16ddn/LL	4.dd\	.	.
.	.	.	.	16ff#/ 16aa	.	.	.
.	.	.	.	16dddn/	.	.	.
.	.	.	.	16ff#/ 16aa	.	.	.
.	.	.	.	16dd/	.	.	.
.	.	.	.	16ff#/JJ 16aa	.	.	.
4D#\)	4.ryy	.	.	16a/LL	4a\	.	.
.	.	.	.	16ff#/ 16aa	.	.	.
.	.	.	.	16ddd/	.	.	.
.	.	.	.	16ff#/ 16aa	.	.	.
8r	.	.	.	16a/	8r	.	.
.	.	.	.	16ff#/JJ) 16aa	.	.	.
*Xped	*	*	*	*	*	*	*
!!LO:PB:g=original
=26	=26	=26	=26	=26	=26	=26	=26
.	8qGGn/	.	.	.	.	.	.
*ped	*	*	*	*	*	*	*
8Gn/L	4G\	.	.	(16b-X/LL	4.b-\	.	.
.	.	.	.	16ddn/ 16ggn	.	.	.
8dn/	.	.	.	16bb-X/	.	.	.
.	.	.	.	16dd/ 16gg	.	.	.
8B-X/J	8ryy	.	.	16b-/	.	.	.
.	.	.	.	16dd/JJ 16gg	.	.	.
4.ryy	4.G\	.	.	16b-/LL	8b-\L	1	.
.	.	.	.	16gg/ 16bb-	.	5 2	.
.	.	.	.	16ccn/	8cc\	1	.
.	.	.	.	16gg/ 16bb-	.	3	.
*Xped	*	*	*	*	*	*	*
.	.	.	.	16cc#X/	8cc#\J	.	.
.	.	.	.	16gg/JJ 16bb-	.	5 2	.
(4Fn\ 4A-X 4B- 4d	4.ryy	.	.	16dd/LL	4.dd\	1	sf
.	.	.	.	16ffn/ 16aa-X	.	.	.
.	.	.	.	16dddn/	.	.	.
.	.	.	.	16ff/ 16aa-	.	.	.
8ryy	.	.	.	16dd/	.	.	.
.	.	.	.	16ff/JJ 16aa-	.	.	.
4BB-X/)	4.ryy	.	.	16dd/LL	8dd^\L	.	.
.	.	.	.	16ff/ 16aa-	.	.	.
.	.	.	.	16cc#/	8cc#^\	.	.
.	.	.	.	16ff/ 16aa-	.	.	.
8r	.	.	.	16b-/	8b-^\J	.	.
.	.	.	.	16ff/JJ) 16aa-	.	.	.
*v	*v	*	*	*	*	*	*
*	*	*	*v	*v	*	*
=27||	=27||	=27||	=27||	=27||	=27||
*k[b-e-a-]	*	*	*k[b-e-a-]	*	*
*E-:	*	*	*E-:	*	*
*^	*	*	*^	*	*
*	*	*	*	*ped	*	*	*
4ryy	4.EE-/ 4.E-	.	.	(16b-/LL	4.b-\	.	f
.	.	.	.	16gg/ 16bb-	.	.	.
.	.	.	.	16eee-/	.	.	.
.	.	.	.	16gg/ 16bb-	.	.	.
8g/	.	.	.	16b-/	.	.	.
.	.	.	.	16gg/JJ 16bb-	.	.	.
8g/L	4.ryy	.	.	16b-/LL	8b-\L	.	.
.	.	.	.	16gg/ 16bb-	.	.	.
8e-/	.	.	.	16ee-/	8ee-\	.	.
.	.	.	.	16gg/ 16bb-	.	.	.
*	*	*	*	*Xped	*	*	*
8B-/J	.	.	.	16dd/	8dd\J	.	.
.	.	.	.	16gg/JJ 16bb-	.	.	.
4.B-^/	4.E-\	.	.	16ff/LL	4.ff\	.	sf
.	.	.	.	16gg/ 16bb-	.	.	.
.	.	.	.	16fff/	.	.	.
.	.	.	.	16gg/ 16bb-	.	.	.
.	.	.	.	16ff/	.	.	.
.	.	.	.	16gg/JJ 16bb-	.	.	.
8B-/L	4E-\	.	.	16ee-/LL	4.ee-\	.	p
.	.	.	.	16gg/ 16bb-	.	.	.
16An/L	.	.	.	16eee-/	.	.	.
16B-/	.	.	.	16gg/ 16bb-	.	.	.
16c/	8ryy	.	.	16ee-/	.	.	.
16B-/JJ	.	.	.	16gg/JJ) 16bb-	.	.	.
!!LO:LB:g=original
=28	=28	=28	=28	=28	=28	=28	=28
4A-/ 4B-	2.BB-\	.	.	(16dd/LL	4dd\	.	.
.	.	.	.	16ff/ 16aa-	.	.	.
.	.	.	.	16ddd/	.	.	.
.	.	.	.	16ff/ 16aa-	.	.	.
8F/	.	.	.	16cc/	8cc\	.	.
.	.	.	.	16ff/JJ 16aa-	.	.	.
8D/L	.	.	.	16b-/LL	8b-\L	.	.
.	.	.	.	16ff/ 16aa-	.	.	.
8F/	.	.	.	16dd/	8dd\	.	.
.	.	.	.	16ff/ 16aa-	.	.	.
8E-/J	.	.	.	16cc/	8cc\J	.	.
.	.	.	.	16ff/JJ 16aa-	.	.	.
4.ryy	4.E-\	.	.	16cc/LL	4.cc^\	.	sf
.	.	.	.	16ee-/ 16gg	.	.	.
.	.	.	.	16ccc/	.	.	.
.	.	.	.	16ee-/ 16gg	.	.	.
.	.	.	.	16cc/	.	.	.
.	.	.	.	16ee-/JJ 16gg	.	.	.
4.ryy	4EE-/	.	.	16b-/LL	4.b-\	.	.
.	.	.	.	16ee-/ 16gg	.	.	.
.	.	.	.	16bb-/	.	.	.
.	.	.	.	16ee-/ 16gg	.	.	.
.	8r	.	.	16b-/	.	.	.
.	.	.	.	16ee-/JJ) 16gg	.	.	.
=29	=29	=29	=29	=29	=29	=29	=29
*	*	*	*	*ped	*	*	*
4ryy	4.EE-/ 4.E-	.	.	(16b-/LL	4.b-\	.	f
.	.	.	.	16gg/ 16bb-	.	.	.
.	.	.	.	16eee-/	.	.	.
.	.	.	.	16gg/ 16bb-	.	.	.
8g/	.	.	.	16b-/	.	.	.
.	.	.	.	16gg/JJ 16bb-	.	.	.
8g/L	4.ryy	.	.	16b-/LL	8b-\L	.	.
.	.	.	.	16gg/ 16bb-	.	.	.
8e-/	.	.	.	16ee-/	8ee-\	.	.
.	.	.	.	16gg/ 16bb-	.	.	.
8B-/J	.	.	.	16dd/	8dd\J	.	.
*	*	*	*	*Xped	*	*	*
.	.	.	.	16gg/JJ 16bb-	.	.	.
[4.B-^/	[4.E-\	.	.	16ff/LL	4.ff\	.	sf
.	.	.	.	16gg/ 16bb-	.	.	.
.	.	.	.	16fff/	.	.	.
.	.	.	.	16gg/ 16bb-	.	.	.
.	.	.	.	16ff/	.	.	.
.	.	.	.	16gg/JJ 16bb-	.	.	.
8B-/L]	4E-\]	.	.	16ee-/LL	4.ee-\	.	p
.	.	.	.	16gg/ 16bb-	.	.	.
16An/L	.	.	.	16eee-/	.	.	.
16B-/	.	.	.	16gg/ 16bb-	.	.	.
16c/	8ryy	.	.	16ee-/	.	.	.
16B-/JJ	.	.	.	16gg/JJ) 16bb-	.	.	.
*v	*v	*	*	*	*	*	*
!!LO:LB:g=original
=30	=30	=30	=30	=30	=30	=30
*	*	*	*ped	*	*	*
!LO:TX:b:i:t=ten	!	!	!	!	!	!
4.F\ 4.B- 4.d	.	.	(16ff/LL	4.ff\	.	.
.	.	.	16bb-/ 16ddd	.	.	.
.	.	.	16bbb-/	.	.	.
.	.	.	16bb-/ 16ddd	.	.	.
.	.	.	16ff/	.	.	.
*	*	*	*Xped	*	*	*
.	.	.	16bb-/JJ 16ddd	.	.	.
*	*	*	*ped	*	*	*
4.F\ 4.c 4.e-	.	.	16ff/LL	4ff\	.	.
.	.	.	16ccc/ 16eee-	.	.	.
.	.	.	16aaan/	.	.	.
.	.	.	16ccc/ 16eee-	.	.	.
.	.	.	16ff/	8ryy	.	.
*	*	*	*Xped	*	*	*
.	.	.	16ccc/JJ 16eee-	.	.	.
[4.F\ [4.d [4.f	.	.	16ff/LL	4ff\	.	pp
.	.	.	16bbn/ 16ddd	.	.	.
.	.	.	16aaa-X/	.	.	.
.	.	.	16bb/ 16ddd	.	.	.
.	.	.	16ff/	8ryy	.	.
.	.	.	16bb/JJ 16ddd	.	.	.
4.F\] 4.d] 4.f]	.	.	16ff/LL	4ff\	.	.
.	.	.	16bb/ 16ddd	.	.	.
.	.	.	16aaa-/	.	.	.
.	.	.	16bb/ 16ddd	.	.	.
.	.	.	16ff/	8ryy	.	.
.	.	.	16bb/JJ 16ddd	.	.	.
=31	=31	=31	=31	=31	=31	=31
*^	*	*	*	*	*	*
4BBB-/ 4BB-	4.ryy	.	.	16ff/LL	4ff\	.	sf
.	.	.	.	16bb-X/ 16ddd	.	.	.
.	.	.	.	16aaa-/	.	.	.
.	.	.	.	16bb-/ 16ddd	.	.	.
8r	.	.	.	16ff/	8ryy	.	.
.	.	.	.	16bb-/JJ 16ddd	.	.	.
8A-/L	8BB-\L	.	.	8aaa-/L	16aaa-^>\LL	.	.
.	.	.	.	.	16bb-\ 16ddd	.	.
8G/	8C\	.	.	8ggg/	16ggg^>\	.	.
.	.	.	.	.	16bb-\	.	.
8F/J	8D\J	.	.	8fff/J	16fff^>\	.	.
.	.	.	.	.	16bb-\JJ	.	.
(4.E-\	4.ryy	.	.	16ff/LL	4.ff^\	.	sf
.	.	.	.	16gg/ 16bb-	.	.	.
.	.	.	.	16fff/	.	.	.
.	.	.	.	16gg/ 16bb-	.	.	.
.	.	.	.	16ff/	.	.	.
.	.	.	.	16gg/JJ 16bb-	.	.	.
4EE-/)	4.ryy	.	.	16ee-/LL	4.ee-\	.	.
.	.	.	.	16gg/ 16bb-	.	.	.
.	.	.	.	16eee-/	.	.	.
.	.	.	.	16gg/ 16bb-	.	.	.
8r	.	.	.	16ee-/	.	.	.
.	.	.	.	16gg/JJ) 16bb-	.	.	.
!!LO:LB:g=original
=32	=32	=32	=32	=32	=32	=32	=32
4.FF/ 4.F	4.ryy	.	.	(16dd/LL	4.dd\	.	sf
.	.	.	.	16ff/ 16bb-	.	.	.
.	.	.	.	16ddd/	.	.	.
.	.	.	.	16ff/ 16bb-	.	.	.
.	.	.	.	16dd/	.	.	.
.	.	.	.	16ff/JJ 16bb-	.	.	.
[4.F/	8FF\L	.	.	16eee-/LL	8ee-^\L	.	.
.	.	.	.	16ff/	.	.	.
.	8GG\	.	.	16ddd/	8dd^\	.	.
.	.	.	.	16ff/	.	.	.
.	8AAn\J	.	.	16ccc/	8cc^\J	.	.
.	.	.	.	16ee-/JJ	.	.	.
(4.F/]	4.BB-\	.	.	16cc/LL	4.cc^\	.	sf
.	.	.	.	16dd/ 16ff	.	.	.
.	.	.	.	16ccc/	.	.	.
.	.	.	.	16dd/ 16ff	.	.	.
.	.	.	.	16cc/	.	.	.
.	.	.	.	16dd/JJ 16ff	.	.	.
4B-\)	4.ryy	.	.	16b-/LL	4.ryy	.	.
.	.	.	.	16dd/ 16ff	.	.	.
.	.	.	.	16bb-/	.	.	.
.	.	.	.	16dd/ 16ff	.	.	.
8r	.	.	.	16b-/	.	.	.
.	.	.	.	16dd/JJ 16ff	.	.	.
*v	*v	*	*	*	*	*	*
=33	=33	=33	=33	=33	=33	=33
8B-\L	.	.	16b-/LL	4b-\	.	p
.	.	.	16ff/ 16aa-	.	.	.
8A-\	.	.	16bb-/	.	.	.
.	.	.	16ff/ 16aa-	.	.	.
8F\J	.	.	16b-/	8ryy	.	.
.	.	.	16ff/JJ 16aa-	.	.	.
4BB-/	.	.	16b-/LL	8b-\L	.	.
.	.	.	16ff/ 16aa-	.	.	.
.	.	.	16cc/	8cc\	.	.
.	.	.	16ff/ 16aa-	.	.	.
8r	.	.	16dd/	8dd\J	.	.
.	.	.	16ff/JJ 16aa-	.	.	.
*	*	*	*v	*v	*	*
*	*	*	*X8	*	*
*	*	*	*^	*	*
(4.E-\	.	.	16ff/LL	4.ff\	.	.
.	.	.	16gg/ 16bb-	.	.	.
.	.	.	16fff/	.	.	.
.	.	.	16gg/ 16bb-	.	.	.
.	.	.	16ff/	.	.	.
.	.	.	16gg/JJ 16bb-	.	.	.
4EE-/)	.	.	16ee-/LL	4.ee-\	.	.
.	.	.	16gg/ 16bb-	.	.	.
.	.	.	16eee-/	.	.	.
.	.	.	16gg/ 16bb-	.	.	.
8r	.	.	16ee-/	.	.	.
.	.	.	16gg/JJ) 16bb-	.	.	.
!!LO:LB:g=original
=34	=34	=34	=34	=34	=34	=34
*^	*	*	*	*	*	*
8c\L	4.c\	.	.	(16een/LL	4ee\	.	.
.	.	.	.	16gg/ 16bb-	.	.	.
8B-\	.	.	.	16eeen/	.	.	.
.	.	.	.	16gg/ 16bb-	.	.	.
8G\J	.	.	.	16ee/	8ryy	.	.
.	.	.	.	16gg/JJ 16bb-	.	.	.
!	!	!	!	!	!	!	!LO:HP:b:t=cres
4.C/	4.ryy	.	.	16cc/LL	8cc\L	.	<
.	.	.	.	16gg/ 16bb-	.	.	.
.	.	.	.	16dd/	8dd\	.	.
.	.	.	.	16gg/ 16bb-	.	.	.
.	.	.	.	16ee/	8ee\J	.	.
.	.	.	.	16gg/JJ 16bb-	.	.	.
*	*	*	*	*8va	*	*	*
(4.F\	4.ryy	.	.	16gg/LL	4.gg^\	.	sf
.	.	.	.	16bb-/ 16ccc	.	.	.
.	.	.	.	16ggg/	.	.	.
.	.	.	.	16bb-/ 16ccc	.	.	.
.	.	.	.	16gg/	.	.	.
.	.	.	.	16bb-/JJ 16ccc	.	.	.
4FF/)	4.ryy	.	.	16ff/LL	4ff\	.	.
.	.	.	.	16aa-/ 16ccc	.	.	.
.	.	.	.	16fff/	.	.	.
.	.	.	.	16aa-/ 16ccc	.	.	.
8r	.	.	.	16ff/	8r	.	.
.	.	.	.	16aa-/JJ 16ccc	.	.	.
=35	=35	=35	=35	=35	=35	=35	=35
4.d/	8d\L	.	.	16ff#X/LL	4ff#\	.	.
.	.	.	.	16aan/ 16ddd	.	.	.
.	8c\	.	.	16fff#X/	.	.	.
.	.	.	.	16aa/ 16ddd	.	.	.
.	8An\J	.	.	16ff#/	8ryy	.	.
.	.	.	.	16aa/JJ 16ddd	.	.	.
4.ryy	4D\ 4F#X	.	.	16dd/LL	8dd\L	.	.
.	.	.	.	16ccc/ 16ddd	.	.	.
.	.	.	.	16een/	8ee\	.	.
.	.	.	.	16ccc/ 16ddd	.	.	.
.	8A\	.	.	16ff#/	8ff#\J	.	.
.	.	.	.	16ccc/JJ 16ddd	.	.	.
4.ryy	4.GG\ 4.G	.	.	16gg/LL	4.ryy	.	.
.	.	.	.	16bbn/ 16ddd	.	.	.
.	.	.	.	16ggg/	.	.	.
.	.	.	.	16bb/ 16ddd	.	.	.
.	.	.	.	16gg/	.	.	.
.	.	.	.	16bb/JJ 16ddd	.	.	.
4.ryy	4.EE-X/ 4.E-X	.	.	16gg/LL	4gg^\	.	sf
.	.	.	.	16bb-X/ 16ddd-X	.	.	.
.	.	.	.	16ggg/	.	.	.
.	.	.	.	16bb-/ 16ddd-	.	.	.
.	.	.	.	16gg/	8ryy	.	.
.	.	.	.	16bb-/JJ) 16ddd-	.	.	.
*	*	*	*	*X8va	*	*	*
*v	*v	*	*	*	*	*	*
!!LO:LB:g=original
=36	=36	=36	=36	=36	=36	=36
*	*	*	*8va	*	*	*
4.AA-X\ 4.A-X	.	.	(16aa-X/LL	4.aa-^\	.	sf
.	.	.	16ccc/ 16eee-	.	.	.
.	.	.	16aaa-/	.	.	.
.	.	.	16ccc/ 16eee-	.	.	.
.	.	.	16aa-/	.	.	.
.	.	.	16ccc/JJ 16eee-	.	.	.
4.FFn/ 4.Fn	.	.	16aan/LL	4.aa^\	.	sf
.	.	.	16ccc/ 16eee-	.	.	.
.	.	.	16aaan/	.	.	.
.	.	.	16ccc/ 16eee-	.	.	.
.	.	.	16aa/	.	.	.
.	.	.	16ccc/JJ 16eee-	.	.	.
4.BB-\ 4.B-	.	.	16bb-/LL	4.bb-\	.	.
.	.	.	16ddd-X/ 16fff	.	.	.
.	.	.	16bbb-/	.	.	.
.	.	.	16ddd-/ 16fff	.	.	.
.	.	.	16bb-/	.	.	.
.	.	.	16ddd-/JJ 16fff	.	.	.
4BBB-/ 4BB-	.	.	16bb-/LL	4bb-\	.	p
.	.	.	16fff/ 16bbb-	.	.	.
.	.	.	16dddd-X/	.	.	.
.	.	.	16fff/ 16bbb-	.	.	.
8r	.	.	16bb-/	8r	.	.
.	.	.	16fff/JJ 16bbb-	.	.	.
=37	=37	=37	=37	=37	=37	=37
*^	*	*	*	*	*	*
2.ryy	2.r	.	.	16bb-/LL	4bb-\	.	pp
.	.	.	.	16fff/ 16aaa-	.	.	.
!	!	!	!	!LO:TX:b:i:t=rallent	!	!	!
.	.	.	.	16dddd/	.	.	.
.	.	.	.	16fff/ 16aaa-	.	.	.
.	.	.	.	16bb-/	8bb-\	.	.
.	.	.	.	16fff/JJ 16aaa-	.	.	.
.	.	.	.	16bb-/LL	4bb-\	.	.
.	.	.	.	16fff-X/ 16aaa-	.	.	.
.	.	.	.	16dddd/	.	.	.
.	.	.	.	16fff-/ 16aaa-	.	.	.
.	.	.	.	16bb-/	8bb-\	.	.
.	.	.	.	16fff-/JJ 16aaa-	.	.	.
!	!	!	!	!LO:TX:b:i:t=a tempo	!	!	!
4.EE-/ 4.E-	4.ryy	.	.	16bb-/LL	4.ryy	.	.
.	.	.	.	16eee-/ 16ggg	.	.	.
!	!	!	!	!LO:TX:b:i:t=pui forte	!	!	!
.	.	.	.	16dddd/	.	.	.
.	.	.	.	16eee-/ 16ggg	.	.	.
.	.	.	.	16bb-/	.	.	.
.	.	.	.	16eee-/JJ 16ggg	.	.	.
4.d/	8E-^>\L	.	.	8dddd/L	16ddd\LL	.	.
.	.	.	.	.	16eee-\ 16ggg	.	.
.	8F^>\	.	.	8cccc/	16ccc\	.	.
.	.	.	.	.	16eee-\ 16ggg	.	.
.	8G^>\J	.	.	8bbb-/J)	16bb-\	.	.
.	.	.	.	.	16eee-\JJ	.	.
*	*	*	*	*X8va	*	*	*
!!LO:PB:g=original
=38	=38	=38	=38	=38	=38	=38	=38
*	*	*	*	*8va	*	*	*
4.c/	4.A-\	.	.	16aa-/LL	4.aa-\	.	.
.	.	.	.	16ccc/ 16eee-	.	.	.
.	.	.	.	16aaa-/	.	.	.
.	.	.	.	16ccc/ 16eee-	.	.	.
.	.	.	.	16aa-/	.	.	.
.	.	.	.	16ccc/JJ 16eee-	.	.	.
!	!	!	!LO:DY:a	!	!	!	!
4.A-/ 4.c-X 4.dn	4.D\	.	sf	16ff/LL	4ff\	.	.
.	.	.	.	16aa-X/ 16bbn	.	.	.
.	.	.	.	16fff/	.	.	.
.	.	.	.	16aa-/ 16bb	.	.	.
.	.	.	.	16ff/	8ryy	.	.
.	.	.	.	16aa-/JJ 16bb	.	.	.
4.A-/ 4.cn 4.e-	4.E-\	.	.	16ee-/LL	4.ee-/	.	p
.	.	.	.	16aa-/ 16ccc	.	.	.
.	.	.	.	16eee-/	.	.	.
.	.	.	.	16aa-/ 16ccc	.	.	.
.	.	.	.	16ee-/	.	.	.
.	.	.	.	16aa-/JJ 16ccc	.	.	.
4EE-/ 4D 4E- 4G	4.ryy	.	.	16ee-/LL	4.ryy	.	.
.	.	.	.	16gg/ 16bb	.	.	.
!	!	!	!	!	!	!	!LO:HP:b:t=dim
.	.	.	.	16eee-/	.	.	>
.	.	.	.	16gg/ 16bb	.	.	.
8r	.	.	.	16ee-/	.	.	.
.	.	.	.	16gg/JJ 16bb	.	.	.
*	*	*	*	*X8va	*	*	*
*v	*v	*	*	*	*	*	*
*	*	*	*v	*v	*	*
=39||	=39||	=39||	=39||	=39||	=39||
*k[b-e-a-d-]	*	*	*k[b-e-a-d-]	*	*
*A-:	*	*	*A-:	*	*
*	*	*	*^	*	*
!LO:TX:b:i:t=staccato	!	!	!	!	!	!
*	*	*	*ped	*	*	*
!	!	!	!LO:TUP:b	!	!	!
8AA-'\L	.	p	(24e-/LL	4e-\	.	f
!	!	!	!LO:TX:b:B:t=a tempo brillante	!	!	!
.	.	.	24cc/	.	.	.
.	.	.	24ee-/	.	.	.
8E-'\	.	.	24aa-/	.	.	.
.	.	.	24ee-/	.	.	.
.	.	.	24cc/	.	.	.
8A-'\J	.	.	24e-/	8e-\	.	.
.	.	.	24cc/	.	.	.
.	.	.	24ee-/JJ	.	.	.
!	!	!	!LO:TUP:b	!	!	!
8c'\L	.	.	24e-/LL	8e-\L	.	.
.	.	.	24cc/	.	.	.
.	.	.	24ee-/	.	.	.
8A-'\	.	.	24a-/	8a-\	.	.
.	.	.	24cc/	.	.	.
.	.	.	24ee-/	.	.	.
8E-'\J	.	.	24g/	8g\J	.	.
.	.	.	24cc/	.	.	.
.	.	.	24ee-/JJ	.	.	.
!	!	!	!LO:TUP:b	!	!	!
8AA-'\L	.	.	24b-/LL	4.b-\	.	.
.	.	.	24cc/	.	.	.
.	.	.	24ee-/	.	.	.
8E-'\	.	.	24bb-/	.	.	.
.	.	.	24ee-/	.	.	.
.	.	.	24cc/	.	.	.
8A-'\J	.	.	24b-/	.	.	.
.	.	.	24cc/	.	.	.
.	.	.	24ee-/JJ	.	.	.
!	!	!	!LO:TUP:b	!	!	!
8c'\L	.	.	24a-/LL	4.a-\	.	.
.	.	.	24cc/	.	.	.
.	.	.	24ee-/	.	.	.
8A-'\	.	.	24aa-/	.	.	.
.	.	.	24ee-/	.	.	.
.	.	.	24cc/	.	.	.
8E-'\J	.	.	24a-/	.	.	.
.	.	.	24cc/	.	.	.
.	.	.	24ee-/JJ)	.	.	.
*	*	*	*Xped	*	*	*
!!LO:LB:g=original
=40	=40	=40	=40	=40	=40	=40
*	*	*	*Xtuplet	*	*	*
8EE-'/L	.	.	(24g/LL	4g\	.	.
.	.	.	24b-/	.	.	.
.	.	.	24dd-/	.	.	.
8E-'/	.	.	24gg/	.	.	.
.	.	.	24dd-/	.	.	.
.	.	.	24b-/	.	.	.
8B-'/J	.	.	24f/	8f\	.	.
.	.	.	24b-/	.	.	.
.	.	.	24dd-/JJ	.	.	.
8d-'\L	.	.	24e-/LL	8e-\L	.	.
.	.	.	24b-/	.	.	.
.	.	.	24dd-/	.	.	.
8B-'\	.	.	24g/	8g\	.	.
.	.	.	24b-/	.	.	.
.	.	.	24dd-/	.	.	.
8E-'\J	.	.	24f/	8f\J	.	.
.	.	.	24b-/	.	.	.
.	.	.	24dd-/JJ	.	.	.
8AA-'\L	.	.	24f/LL	4.f\	.	.
.	.	.	24a-/	.	.	.
.	.	.	24cc/	.	.	.
8E-'\	.	.	24ff/	.	.	.
.	.	.	24cc/	.	.	.
.	.	.	24a-/	.	.	.
8A-'\J	.	.	24f/	.	.	.
.	.	.	24a-/	.	.	.
.	.	.	24cc/JJ	.	.	.
8c'\L	.	.	24e-/LL	4.e-\	.	.
.	.	.	24a-/	.	.	.
.	.	.	24cc/	.	.	.
8A-'\	.	.	24ee-/	.	.	.
.	.	.	24cc/	.	.	.
.	.	.	24a-/	.	.	.
8E-'\J	.	.	24e-/	.	.	.
.	.	.	24a-/	.	.	.
.	.	.	24cc/JJ	.	.	.
!!linebreak:original
=41	=41	=41	=41	=41	=41	=41
*	*	*	*ped	*	*	*
8AA-'\L	.	.	24e-/LL	4e-\	.	.
.	.	.	24cc/	.	.	.
.	.	.	24ee-/	.	.	.
8E-'\	.	.	24aa-/	.	.	.
.	.	.	24ee-/	.	.	.
.	.	.	24cc/	.	.	.
8A-'\J	.	.	24e-/	8e-\	.	.
.	.	.	24cc/	.	.	.
.	.	.	24ee-/JJ	.	.	.
8c'\L	.	.	24e-/LL	8e-\L	.	.
.	.	.	24cc/	.	.	.
.	.	.	24ee-/	.	.	.
8A-'\	.	.	24a-/	8a-\	.	.
.	.	.	24cc/	.	.	.
.	.	.	24ee-/	.	.	.
8E-'\J	.	.	24g/	8g\J	.	.
.	.	.	24cc/	.	.	.
.	.	.	24ee-/JJ	.	.	.
8AA-'\L	.	.	24b-/LL	4.b-\	.	sf
.	.	.	24cc/	.	.	.
.	.	.	24ee-/	.	.	.
8E-'\	.	.	24bb-/	.	.	.
.	.	.	24ee-/	.	.	.
.	.	.	24cc/	.	.	.
8A-'\J	.	.	24b-/	.	.	.
.	.	.	24cc/	.	.	.
.	.	.	24ee-/JJ	.	.	.
8c'\L	.	.	24a-/LL	4a-\	.	.
.	.	.	24cc/	.	.	.
.	.	.	24ee-/	.	.	.
8A-'\	.	.	24aa-/	.	.	.
.	.	.	24ee-/	.	.	.
.	.	.	24cc/	.	.	.
8E-'\J	.	.	24a-/	8r	.	.
.	.	.	24cc/	.	.	.
.	.	.	24ee-/JJ)	.	.	.
*	*	*	*Xped	*	*	*
!!LO:LB:g=original
=42	=42	=42	=42	=42	=42	=42
8BB-'\L	.	.	(24b-/LL	4b-\	.	sf
.	.	.	24gg/	.	.	.
.	.	.	24bb-/	.	.	.
8B-'\	.	.	24eee-/	.	.	.
.	.	.	24bb-/	.	.	.
.	.	.	24gg/	.	.	.
8e-'\J	.	.	24b-/	8ryy	.	.
.	.	.	24gg/	.	.	.
.	.	.	24bb-/JJ	.	.	.
8a-'\L	.	.	24b-/LL	4b-\	.	.
.	.	.	24ff/	.	.	.
.	.	.	24aa-/	.	.	.
8f'\	.	.	24dddn/	.	.	.
.	.	.	24aa-/	.	.	.
.	.	.	24ff/	.	.	.
8B-'\J	.	.	24b-/	8ryy	.	.
.	.	.	24ff/	.	.	.
.	.	.	24aa-/JJ	.	.	.
8BB-'\L	.	.	24b-/LL	4b-\	.	pp
.	.	.	24ff/	.	.	.
.	.	.	24aa-/	.	.	.
*ped	*	*	*	*	*	*
8B-'\	.	.	24ddd-X/	.	.	>
.	.	.	24aa-/	.	.	.
.	.	.	24ff/	.	.	.
8f'\J	.	.	24b-/	8ryy	.	.
.	.	.	24ff/	.	.	.
.	.	.	24aa-/JJ	.	.	.
8a-'\L	.	.	24ddd-\LL	4.ryy	.	]
.	.	.	24aa-\	.	.	.
.	.	.	24ff-X\	.	.	.
8f-X'\	.	.	24b-\	.	.	.
.	.	.	24ff-\	.	.	.
.	.	.	24aa-\	.	.	.
8B-'\J	.	.	24ddd-\	.	.	.
.	.	.	24aa-\	.	.	.
.	.	.	24ff-\JJ	.	.	.
*	*	*	*v	*v	*	*
*Xped	*	*	*	*	*
=43	=43	=43	=43	=43	=43
*	*	*	*ped	*	*
8EE-'\L 8E-	.	.	24b-\LL	.	f
.	.	.	24ee-\	.	.
.	.	.	24gg\	.	.
8B-'\	.	.	24ddd-\	.	.
.	.	.	24gg\	.	.
.	.	.	24ee-\	.	.
8e-'\J	.	.	24b-\	.	.
.	.	.	24ee-\	.	.
.	.	.	24gg\JJ	.	.
*	*	*	*^	*	*
8g'\L	.	.	8ddd-/L	24ddd-\LL	.	.
.	.	.	.	24gg\	.	.
.	.	.	.	24ee-\	.	.
8e-'\	.	.	8ccc/	24ccc\	.	.
.	.	.	.	24gg\	.	.
.	.	.	.	24ee-\	.	.
8B-'\J	.	.	8bb-/J	24bb-\	.	.
.	.	.	.	24gg\	.	.
*	*	*	*Xped	*	*	*
.	.	.	.	24ee-\JJ	.	.
*	*	*	*ped	*	*	*
8AA-'\L	.	.	24b-/LL	4.b-^\	.	sf
.	.	.	24cc/	.	.	.
.	.	.	24ee-/	.	.	.
8E-'\	.	.	24bb-/	.	.	.
.	.	.	24ee-/	.	.	.
.	.	.	24cc/	.	.	.
8A-'\J	.	.	24b-/	.	.	.
.	.	.	24cc/	.	.	.
.	.	.	24ee-/JJ	.	.	.
8c'\L	.	.	24a-/LL	4.a-\	.	.
.	.	.	24cc/	.	.	.
.	.	.	24ee-/	.	.	.
8A-'\	.	.	24aa-/	.	.	.
.	.	.	24ee-/	.	.	.
.	.	.	24cc/	.	.	.
8E-'\J	.	.	24a-/	.	.	.
.	.	.	24cc/	.	.	.
.	.	.	24ee-/JJ)	.	.	.
*	*	*	*Xped	*	*	*
!!LO:LB:g=original
=44	=44	=44	=44	=44	=44	=44
8BBB-/L 8BB-	.	.	(24g/LL	4.g\	.	sf
.	.	.	24b-/	.	.	.
.	.	.	24ee-/	.	.	.
8G'/	.	.	24gg/	.	.	.
.	.	.	24ee-/	.	.	.
.	.	.	24b-/	.	.	.
8B-'/J	.	.	24g/	.	.	.
.	.	.	24b-/	.	.	.
.	.	.	24ee-/JJ	.	.	.
8d-'\L	.	.	8aa-/L	24aa-\LL	.	.
.	.	.	.	24ddn\	.	.
.	.	.	.	24b-\	.	.
8B-'\	.	.	8gg/	24gg\	.	.
.	.	.	.	24dd\	.	.
.	.	.	.	24b-\	.	.
8F'\J	.	.	8ff/J	24ff\	.	.
.	.	.	.	24dd\	.	.
.	.	.	.	24b-\JJ	.	.
8BB-\L	.	.	24f/LL	4f\	.	.
.	.	.	24a-/	.	.	.
.	.	.	24b-/	.	.	.
8B-'\	.	.	24ff/	.	.	.
.	.	.	24b-/	.	.	.
.	.	.	24a-/	.	.	.
8d-'\J	.	.	24f/	8ryy	.	.
.	.	.	24a-/	.	.	.
.	.	.	24b-/JJ	.	.	.
8e-\L	.	.	24e-/LL	4.ryy	.	.
.	.	.	24g/	.	.	.
.	.	.	24b-/	.	.	.
8B-'\	.	.	24ee-/	.	.	.
.	.	.	24b-/	.	.	.
.	.	.	24g/	.	.	.
8G'\J	.	.	24e-/	.	.	.
.	.	.	24g/	.	.	.
.	.	.	24b-/JJ	.	.	.
=45	=45	=45	=45	=45	=45	=45
*ped	*	*	*	*	*	*
*^	*	*	*	*	*	*
.	4qqEE-/	.	.	.	.	.	.
4E-/	4.E-\	.	.	24e-/LL	4e-\	.	fp
.	.	.	.	24b-/	.	.	.
.	.	.	.	24dd-/	.	.	.
.	.	.	.	24ee-/	.	.	.
.	.	.	.	24dd-/	.	.	.
.	.	.	.	24b-/	.	.	.
8d-/	.	.	.	24e-/	8e-\	.	.
.	.	.	.	24b-/	.	.	.
.	.	.	.	24dd-/JJ	.	.	.
8d-/L	2.E-\	.	.	24e-/LL	8e-\L	.	.
.	.	.	.	24b-/	.	.	.
.	.	.	.	24dd-/	.	.	.
8c/	.	.	.	24f/	8f\	.	.
.	.	.	.	24b-/	.	.	.
.	.	.	.	24dd-/	.	.	.
8B-/J	.	.	.	24g/	8g\J	.	.
.	.	.	.	24b-/	.	.	.
.	.	.	.	24dd-/JJ	.	.	.
8B-/L	.	.	.	24b-/LL	(4.b-\	.	>
.	.	.	.	24cc/	.	.	.
.	.	.	.	24ee-/	.	.	.
8A-/	.	.	.	24bb-/	.	.	]
.	.	.	.	24ee-/	.	.	.
.	.	.	.	24cc/	.	.	.
8G/J	.	.	.	24b-/	.	.	.
.	.	.	.	24cc/	.	.	.
.	.	.	.	24ee-/JJ	.	.	.
*Xped	*	*	*	*	*	*	*
4A-\	4.ryy	.	.	24a-/LL	4a-\)	.	.
.	.	.	.	24cc/	.	.	.
.	.	.	.	24ee-/	.	.	.
.	.	.	.	24aa-/	.	.	.
.	.	.	.	24ee-/	.	.	.
.	.	.	.	24cc/	.	.	.
8r	.	.	.	24a-/	8ryy	.	.
.	.	.	.	24cc/	.	.	.
.	.	.	.	24ee-/JJ)	.	.	.
!!LO:LB:g=original
=46	=46	=46	=46	=46	=46	=46	=46
.	8qFF/	.	.	.	.	.	.
*ped	*	*	*	*	*	*	*
4.F/	4.F\	.	.	(24an/LL	4.a\	.	sfp
.	.	.	.	24cc/	.	.	.
.	.	.	.	24ee-/	.	.	.
.	.	.	.	24aan/	.	.	.
.	.	.	.	24ee-/	.	.	.
.	.	.	.	24cc/	.	.	.
.	.	.	.	24a/	.	.	.
.	.	.	.	24cc/	.	.	.
.	.	.	.	24ee-/JJ	.	.	.
8e-/L	2.F\	.	.	24f/LL	8f\L	.	.
.	.	.	.	24cc/	.	.	.
.	.	.	.	24ee-/	.	.	.
8d-/	.	.	.	24g/	8g\	.	.
.	.	.	.	24cc/	.	.	.
.	.	.	.	24ee-/	.	.	.
8c/J	.	.	.	24a/	8a\J	.	.
.	.	.	.	24cc/	.	.	.
.	.	.	.	24ee-/JJ	.	.	.
8c^/L	.	.	.	24cc/LL	(4.cc\	.	sf
.	.	.	.	24dd-/	.	.	.
.	.	.	.	24ff/	.	.	.
8B-/	.	.	.	24ccc/	.	.	.
.	.	.	.	24ff/	.	.	.
.	.	.	.	24dd-/	.	.	.
8A-/J	.	.	.	24cc/	.	.	.
.	.	.	.	24dd-/	.	.	.
.	.	.	.	24ff/JJ	.	.	.
*Xped	*	*	*	*	*	*	*
4B-\	4.ryy	.	.	24b-/LL	4b-\)	.	.
.	.	.	.	24dd-/	.	.	.
.	.	.	.	24ff/	.	.	.
.	.	.	.	24bb-/	.	.	.
.	.	.	.	24ff/	.	.	.
.	.	.	.	24dd-/	.	.	.
8r	.	.	.	24b-/	8r	.	.
.	.	.	.	24dd-/	.	.	.
.	.	.	.	24ff/JJ	.	.	.
=47	=47	=47	=47	=47	=47	=47	=47
4E-/	8EE-\L	.	.	24b-/LL	8b-^\L	.	.
.	.	.	.	24dd-/	.	.	.
.	.	.	.	24bb-/	.	.	.
.	8FF\	.	.	24a-/	8a-^\	.	f
.	.	.	.	24cc/	.	.	.
.	.	.	.	24aa-/	.	.	.
8D-/ 8E-	8GG\J	.	.	24g/	8g^\J	.	.
.	.	.	.	24b-/	.	.	.
.	.	.	.	24gg/JJ	.	.	.
4.E-/	8GG\L 8BB-	.	.	24dd-/LL	8dd-^\L	.	.
.	.	.	.	24ff/	.	.	.
.	.	.	.	24ddd-/	.	.	.
.	8AA-\	.	.	24cc/	8cc^\	.	.
.	.	.	.	24ee-/	.	.	.
.	.	.	.	24ccc/	.	.	.
.	8BB-\J	.	.	24b-/	8b-^\J	.	.
.	.	.	.	24dd-/	.	.	.
.	.	.	.	24bb-/JJ	.	.	.
4C/	4AA-\	.	.	24a-/LL	4.a-\	.	.
.	.	.	.	24cc/	.	.	.
.	.	.	.	24ee-/	.	.	.
.	.	.	.	24aa-/	.	.	.
.	.	.	.	24ee-/	.	.	.
.	.	.	.	24cc/	.	.	.
8r	8ryy	.	.	24a-/	.	.	.
.	.	.	.	24cc/	.	.	.
.	.	.	.	24ee-/JJ	.	.	.
4.DDn/ 4.Dn	4.ryy	.	.	24f/LL	4f^\	.	sf
.	.	.	.	24a-/	.	.	.
.	.	.	.	24bn/	.	.	.
.	.	.	.	24ff/	.	.	.
.	.	.	.	24b/	.	.	.
.	.	.	.	24a-/	.	.	.
.	.	.	.	24f/	8ryy	.	.
.	.	.	.	24a-/	.	.	.
.	.	.	.	24b/JJ)	.	.	.
!!LO:LB:g=original
=48	=48	=48	=48	=48	=48	=48	=48
4EE-\ 4E-	2.ryy	.	.	(24e-\LL	4.ryy	.	.
.	.	.	.	24cc\	.	.	.
.	.	.	.	24ee-\	.	.	.
.	.	.	.	24aa-\	.	.	.
.	.	.	.	24ee-\	.	.	.
.	.	.	.	24cc\	.	.	.
8r	.	.	.	24e-\	.	.	.
.	.	.	.	24cc\	.	.	.
.	.	.	.	24ee-\JJ	.	.	.
4.E-\ 4.B- 4.d-	.	.	.	24e-\LL	4.ryy	.	.
.	.	.	.	24b-\	.	.	.
.	.	.	.	24dd-\	.	.	.
.	.	.	.	24gg\	.	.	.
.	.	.	.	24dd-\	.	.	.
.	.	.	.	24b-\	.	.	.
.	.	.	.	24e-\	.	.	.
.	.	.	.	24b-\	.	.	.
.	.	.	.	24dd-\JJ	.	.	.
4r	[4.AA-\	.	.	24e-/LL	4e-\	.	.
.	.	.	.	24cc/	.	.	.
.	.	.	.	24ee-/	.	.	.
.	.	.	.	24aa-/	.	.	.
.	.	.	.	24ee-/	.	.	.
.	.	.	.	24cc/	.	.	.
8c/	.	.	.	24e-/	8e-\	.	p
.	.	.	.	24cc/	.	.	.
.	.	.	.	24ee-/JJ	.	.	.
8c/L	4.AA-\]	.	.	24e-/LL	8e-\L	.	.
.	.	.	.	24cc/	.	.	.
.	.	.	.	24ee-/	.	.	.
8A-/	.	.	.	24f/	8f\	.	.
.	.	.	.	24cc/	.	.	.
.	.	.	.	24ee-/	.	.	.
8E-/J	.	.	.	24g/	8g\J	.	.
.	.	.	.	24cc/	.	.	.
.	.	.	.	24ee-/JJ	.	.	.
*v	*v	*	*	*	*	*	*
!!linebreak:original
=49	=49	=49	=49	=49	=49	=49
4AA-/	.	.	24a-/LL	4a-\	.	.
.	.	.	24cc/	.	.	.
.	.	.	24ee-/	.	.	.
.	.	.	24aa-/	.	.	.
.	.	.	24ee-/	.	.	.
.	.	.	24cc/	.	.	.
8FF\ 8F	.	.	24an/	8a^\	.	.
.	.	.	24cc/	.	.	.
.	.	.	24ee-/JJ	.	.	.
4B-\ 4d- 4f	.	.	24b-/LL	4b-\	.	.
.	.	.	24dd-/	.	.	.
.	.	.	24ff/	.	.	.
.	.	.	24bb-/	.	.	.
.	.	.	24ff/	.	.	.
.	.	.	24dd-/	.	.	.
8EE-\ 8E-	.	.	24g/	8g^\	.	.
.	.	.	24dd-/	.	.	.
.	.	.	24ee-/JJ	.	.	.
4AA-\ 4A-	.	.	24a-X/LL	4a-\	.	.
.	.	.	24cc/	.	.	.
.	.	.	24ee-/	.	.	.
.	.	.	24aa-/	.	.	.
.	.	.	24ee-/	.	.	.
.	.	.	24cc/	.	.	.
8c\	.	.	24e-/	8e-\	.	.
.	.	.	24cc/	.	.	.
.	.	.	24ee-/JJ	.	.	.
8c\L	.	.	24e-/LL	8e-\L	.	<
.	.	.	24cc/	.	.	.
.	.	.	24ee-/	.	.	.
8A-\	.	.	24f/	8f\	.	.
.	.	.	24cc/	.	.	.
.	.	.	24ee-/	.	.	.
8E-\J	.	.	24g/	8g\J	.	.
.	.	.	24cc/)	.	.	.
.	.	.	24ee-/JJ	.	.	[
!!LO:PB:g=original
=50	=50	=50	=50	=50	=50	=50
4AA-/	.	.	(24a-X/LL	4a-\	.	.
.	.	.	24cc/	.	.	.
.	.	.	24ee-/	.	.	.
.	.	.	24aa-/	.	.	.
.	.	.	24ee-/	.	.	.
.	.	.	24cc/	.	.	.
8FF/ 8F	.	.	24an/	8a^\	.	.
.	.	.	24cc/	.	.	.
.	.	.	24ee-/JJ	.	.	.
4B-\ 4d- 4f	.	.	24b-/LL	4b-\	.	.
.	.	.	24dd-/	.	.	.
.	.	.	24ff/	.	.	.
.	.	.	24bb-/	.	.	.
.	.	.	24ff/	.	.	.
.	.	.	24dd-/	.	.	.
8EE-/ 8E-	.	.	24g/	8g^\	.	.
.	.	.	24dd-/	.	.	.
.	.	.	24ee-/JJ	.	.	.
4A-\ 4c	.	.	24a-X/LL	4a-\	.	.
.	.	.	24cc/	.	.	.
.	.	.	24ee-/	.	.	.
.	.	.	24aa-/	.	.	.
.	.	.	24ee-/	.	.	.
.	.	.	24cc/	.	.	.
8FF/ 8F	.	.	24an/	8a^\	.	.
.	.	.	24cc/	.	.	.
.	.	.	24ee-/JJ	.	.	.
4B-\ 4d- 4f	.	.	24b-/LL	4b-\	.	.
.	.	.	24dd-/	.	.	.
.	.	.	24ff/	.	.	.
.	.	.	24bb-/	.	.	.
.	.	.	24ff/	.	.	.
.	.	.	24dd-/	.	.	.
8EE-/ 8E-	.	.	24g/	8g^\	.	.
.	.	.	24dd-/	.	.	.
.	.	.	24ee-/JJ	.	.	.
=51	=51	=51	=51	=51	=51	=51
4A-\ 4c	.	.	24a-/LL	4a-\	.	.
.	.	.	24cc/	.	.	.
.	.	.	24ee-/	.	.	.
.	.	.	24aa-/	.	.	.
.	.	.	24ee-/	.	.	.
.	.	.	24cc/	.	.	.
8FF\ 8F	.	.	24an/	8a\	.	sf
.	.	.	24cc/	.	.	.
.	.	.	24aa-/JJ	.	.	.
4B-\ 4d-	.	.	24b-/LL	4b-\	.	.
.	.	.	24dd-/	.	.	.
.	.	.	24ff/	.	.	.
.	.	.	24bb-/	.	.	.
.	.	.	24ff/	.	.	.
.	.	.	24dd-/	.	.	.
!	!	!LO:DY:a	!	!LO:TX:b:t=cres_:problem:dynamics with extension lines	!	!LO:HP:b:t=cres-:ext=cd
8GG^\ 8G	.	sf	24bn/	8b\	.	<
.	.	.	24dd-/	.	.	.
.	.	.	24bb-/JJ	.	.	.
4c\ 4e-	.	.	24cc/LL	4cc\	.	.
.	.	.	24ee-/	.	.	.
.	.	.	24gg/	.	.	.
.	.	.	24ccc/	.	.	.
.	.	.	24gg/	.	.	.
.	.	.	24ee-/	.	.	.
8AA-\ 8A-	.	.	24cc/	8cc\	.	.
.	.	.	24ee-/	.	.	.
.	.	.	24ccc/JJ	.	.	.
!	!	!LO:DY:a	!	!	!	!
4d-^\ 4f	.	sf	24dd-/LL	4dd-\	.	.
.	.	.	24ff/	.	.	.
.	.	.	24aa-/	.	.	.
.	.	.	24ddd-/	.	.	.
.	.	.	24aa-/	.	.	.
.	.	.	24ff/	.	.	.
*	*	*	*v	*v	*	*
*	*	*	*X8	*	*
*	*	*	*^	*	*
!	!	!LO:DY:a	!	!	!	!
8BB-^\ 8B-	.	sf	24ddn/	8dd\	.	.
.	.	.	24ff/)	.	.	.
.	.	.	24ddd-/JJ	.	.	.
!!LO:LB:g=original
=52	=52	=52	=52	=52	=52	=52
4E-\ 4e-	.	.	(24ee-/LL	4ee-\	.	.
.	.	.	24gg/	.	.	.
.	.	.	24ccc/	.	.	.
.	.	.	24eee-/	.	.	.
.	.	.	24ccc/	.	.	.
.	.	.	24gg/	.	.	.
!	!	!LO:DY:a	!	!	!	!
8C^\ 8c	.	sf	24een/	8ee\	.	.
.	.	.	24gg/	.	.	.
.	.	.	24eee-/JJ	.	.	.
4D-\ 4d-	.	.	24ff/LL	4ff\	.	.
.	.	.	24aa-/	.	.	.
.	.	.	24ddd-/	.	.	.
.	.	.	24fff/	.	.	.
.	.	.	24ddd-/	.	.	.
.	.	.	24aa-/	.	.	.
!	!	!LO:DY:a	!	!	!	!
8Dn^\ 8dn	.	sf	24ff/	8ff\	.	[
.	.	.	24aa-/	.	.	.
.	.	.	24fff/JJ	.	.	ff
4.E-\ 4.e-	.	.	24ee-X\LL	2.ryy	.	.
.	.	.	24aa-\	.	.	.
.	.	.	24ccc\	.	.	.
.	.	.	24eee-\	.	.	.
.	.	.	24ccc\	.	.	.
.	.	.	24aa-\	.	.	.
.	.	.	24ee-\	.	.	.
.	.	.	24cc\	.	.	.
.	.	.	24a-\JJ	.	.	.
!	!	!LO:DY:a	!	!	!	!
24E-\LL	.	sf	24e-\LL	.	.	.
24A-\	.	.	24a-\	.	.	.
24c\	.	.	24cc\	.	.	.
24e-\	.	.	24ee-\	.	.	<
*clefG2	*	*	*	*	*	*
24a-\	.	.	24aa-\	.	.	.
24cc\	.	.	24ccc\	.	.	.
*	*	*	*8va	*	*	*
24ee-\	.	.	24eee-\	.	.	.
24aa-\	.	.	24aaa-\	.	.	.
24ccc\JJ	.	.	24cccc\JJ	.	[[	.
*	*	*	*v	*v	*	*
=53	=53	=53	=53	=53	=53
4eee-^\	.	.	4eeee-\)	.	.
*	*	*	*X8va	*	*
8r	.	.	8r	.	.
4r	.	.	4r	.	.
8r	.	.	8r	.	.
*clefF4	*	*	*	*	*
8EE-:\ 8E-: 8B-: 8d-:	.	.	8e-:\ 8b-: 8dd-: 8ee-: 8gg:	.	sfz
8r	.	.	8r	.	.
8r	.	.	8r	.	.
4r	.	.	4r	.	.
8r	.	.	8r	.	.
!!LO:LB:g=original
=54	=54	=54	=54	=54	=54
*^	*	*	*^	*	*
4.ryy	2.AA-/	.	.	(16e-/LL	4.e-\	.	p
!	!	!	!	!LO:TX:b:i:t=calando	!	!	!
.	.	.	.	16cc/ 16ee-	.	.	.
.	.	.	.	16aa-/	.	.	.
.	.	.	.	16cc/ 16ee-	.	.	.
.	.	.	.	16e-/	.	.	.
.	.	.	.	16cc/JJ 16ee-	.	.	.
(<8E-/L	.	.	.	16e-/LL	8e-\L	.	.
.	.	.	.	16cc/ 16ee-	.	.	.
8c/	.	.	.	16g-X/	8g-\	.	.
.	.	.	.	16cc/ 16ee-	.	.	.
8A-/J)	.	.	.	16f/	8f\J	.	.
.	.	.	.	16cc/JJ 16ee-	.	.	.
4E-/	4AA-\	.	.	16g-/LL	4.g-\	.	.
.	.	.	.	16cc/ 16ee-	.	.	.
.	.	.	.	16aa-/	.	.	.
.	.	.	.	16cc/ 16ee-	.	.	.
8r	8ryy	.	.	16g-/	.	.	.
.	.	.	.	16cc/JJ 16ee-	.	.	.
8A-/L	4.A-\	.	.	16g-/LL	8g-\L	.	.
.	.	.	.	16cc/ 16ee-	.	.	.
8e-^/	.	.	.	16b-/	8b-\	.	.
.	.	.	.	16cc/ 16ee-	.	.	.
8c/J	.	.	.	16a-/	8a-\J	.	.
.	.	.	.	16cc/JJ) 16ee-	.	.	.
=55	=55	=55	=55	=55	=55	=55	=55
8d-/L	4.D-\	.	.	(16f/LL	4f\	.	.
.	.	.	.	16dd-/ 16ff	.	.	.
8A-/	.	.	.	16aa-/	.	.	.
.	.	.	.	16dd-/ 16ff	.	.	.
8F/J	.	.	.	16a-/	8ryy	.	.
.	.	.	.	16dd-/JJ 16ff	.	.	.
*v	*v	*	*	*	*	*	*
*	*	*	*v	*v	*	*
*^	*	*	*^	*	*
4.ryy	4.D-\	.	.	16f/LL	8f\L	.	.
.	.	.	.	16dd-/ 16ff	.	.	.
.	.	.	.	16g/	8gn\	.	.
.	.	.	.	16dd-/ 16ff	.	.	.
.	.	.	.	16a-/	8a-\J	.	.
.	.	.	.	16dd-/JJ 16ff	.	.	.
[4.e-/	4.E-\	.	.	16g/LL	4.g\	.	.
.	.	.	.	16dd-/ 16ee-	.	.	>
.	.	.	.	16bb-/	.	.	.
.	.	.	.	16dd-/ 16ee-	.	.	.
.	.	.	.	16g/	.	.	.
.	.	.	.	16dd-/JJ 16ee-	.	.	.
(4.e-/]	8E-\L	.	.	16g/LL	8g\L	.	]
.	.	.	.	16dd-/ 16ee-	.	.	.
.	8F\	.	.	16a-/	8a-\	.	.
.	.	.	.	16dd-/ 16ee-	.	.	.
.	8G\J	.	.	16b-/	8b-\J	.	.
.	.	.	.	16dd-/JJ) 16ee-	.	.	.
!!LO:LB:g=original
=56	=56	=56	=56	=56	=56	=56	=56
4c/)	4A-\	.	.	(16a-/LL	4a-\	.	.
.	.	.	.	16cc/ 16ee-	.	.	.
.	.	.	.	16aa-/	.	.	.
.	.	.	.	16cc/ 16ee-	.	.	.
8r	8ryy	.	.	16a-/	8ryy	.	.
.	.	.	.	16cc/JJ 16ee-	.	.	.
*	*	*	*	*8va	*	*	*
8G-X/L	4.AA-\	.	.	16ee-/LL	8ee-\L	.	.
.	.	.	.	16ccc/ 16eee-	.	.	.
8F/	.	.	.	16ff/	8ff\	.	.
.	.	.	.	16ccc/ 16eee-	.	.	.
8E-/J	.	.	.	16gg-X/	8gg-\J	.	.
.	.	.	.	16ccc/JJ 16eee-	.	.	.
4E-/	4AA-\	.	.	16gg-/LL	4.gg-\	.	.
.	.	.	.	16ccc/ 16eee-	.	.	.
.	.	.	.	16aaa-/	.	.	.
.	.	.	.	16ccc/ 16eee-	.	.	.
8r	8ryy	.	.	16gg-/	.	.	.
.	.	.	.	16ccc/JJ 16eee-	.	.	.
8g-X^/L	4A-\	.	.	16bb-/LL	8bb-\L	.	.
.	.	.	.	16ccc/ 16eee-	.	.	.
8f/	.	.	.	16aa-/	8aa-\	.	.
.	.	.	.	16ccc/ 16eee-	.	.	.
8e-/J	8ryy	.	.	16gg-/	8gg-\J	.	.
.	.	.	.	16ccc/JJ) 16eee-	.	.	.
=57	=57	=57	=57	=57	=57	=57	=57
2.ryy	(>8d-\L	.	.	(16ff/LL	4ff\	.	.
.	.	.	.	16ddd-/ 16fff	.	.	.
.	8A-\	.	.	16aaa-/	.	.	.
.	.	.	.	16ddd-/ 16fff	.	.	.
.	8F\J	.	.	16ff/	8ryy	.	.
.	.	.	.	16ddd-/JJ 16fff	.	.	.
.	4.D-\)	.	.	16aa-/LL	8aa-\L	.	.
.	.	.	.	16ddd-/ 16fff	.	.	.
.	.	.	.	16gg/	8gg\	.	.
.	.	.	.	16ddd-/ 16fff	.	.	.
.	.	.	.	16ff/	8ff\J	.	.
.	.	.	.	16ddd-/JJ 16fff	.	.	.
4.ryy	4.E-\	.	.	16gg/LL	4gg\	.	.
.	.	.	.	16ddd-/ 16eee-	.	.	.
.	.	.	.	16bbb-/	.	.	.
.	.	.	.	16ddd-/ 16eee-	.	.	.
.	.	.	.	16gg/	8gg\	.	.
.	.	.	.	16ddd-/JJ 16eee-	.	.	.
!	!	!	!LO:HP:a	!	!	!	!
4e-/	4E-\	.	>	16gg/LL	8gg\L	.	.
.	.	.	.	16ddd-/ 16eee-	.	.	.
.	.	.	.	16ccc/	8ccc\	.	.
.	.	.	.	16ddd-/ 16eee-	.	.	.
8d-/	8ryy	.	]	16bb-/	8bb-\J	.	.
.	.	.	.	16ddd-/JJ) 16eee-	.	.	.
*	*	*	*	*X8va	*	*	*
!!LO:LB:g=original
=58	=58	=58	=58	=58	=58	=58	=58
*	*	*	*	*8va	*	*	*
4c/	4A-\	.	.	(16aa-/LL	4.aa-\	.	.
.	.	.	.	16ccc/ 16eee-	.	.	.
.	.	.	.	16aaa-/	.	.	.
.	.	.	.	16ccc/ 16eee-	.	.	.
8r	8ryy	.	.	16aa-/	.	.	.
.	.	.	.	16ccc/JJ 16eee-	.	.	.
4f-X/	4.A-\	.	.	16aa-/LL	4.aa-\	.	.
*	*	*	*	*X8va	*	*	*
.	.	.	.	16dd-/ 16ff-X	.	.	.
.	.	.	.	16aa-/	.	.	.
.	.	.	.	16dd-/ 16ff-	.	.	.
8d-/	.	.	.	16a-/	.	.	.
.	.	.	.	16dd-/JJ 16ff-	.	.	.
4e-/	4A-\	.	.	16a-/LL	4.a-\	.	.
.	.	.	.	16cc/ 16ee-	.	.	.
.	.	.	.	16aa-/	.	.	.
.	.	.	.	16cc/ 16ee-	.	.	.
8r	8ryy	.	.	16a-/	.	.	.
.	.	.	.	16cc/JJ 16ee-	.	.	.
4fn/	4.A-\	.	.	16a-/LL	4.a-\	.	.
.	.	.	.	16dd-/ 16ffn	.	.	.
.	.	.	.	16aa-/	.	.	.
.	.	.	.	16dd-/ 16ff	.	.	.
8d-/	.	.	.	16a-/	.	.	.
.	.	.	.	16dd-/JJ) 16ff	.	.	.
=59	=59	=59	=59	=59	=59	=59	=59
4c/	[>2.A-\	.	.	(16a-/LL	4.a-\	.	.
.	.	.	.	16cc/ 16ee-	.	.	.
.	.	.	.	16aa-/	.	.	.
.	.	.	.	16cc/ 16ee-	.	.	.
8ryy	.	.	.	16a-/	.	.	.
.	.	.	.	16cc/JJ 16ee-	.	.	.
!	!	!	!	!LO:TX:b:i:t=m.g.	!	!	!
4.ryy	.	.	.	16a-/LL	8a-\L	.	.
.	.	.	.	16cc/ 16ee-	.	.	.
.	.	.	.	16g/	8g\	.	.
.	.	.	.	16cc/ 16ee-	.	.	.
.	.	.	.	16f/	8f\J	.	.
.	.	.	.	16cc/JJ 16ee-	.	.	.
2.ryy	2.A-\]	.	.	16e-/LL	4e-\	.	.
.	.	.	.	16b-/ 16dd-	.	.	.
.	.	.	.	16gg/	.	.	.
.	.	.	.	16b-/ 16dd-	.	.	.
.	.	.	.	16en/	8e\	.	.
.	.	.	.	16b-/JJ 16dd-	.	.	.
.	.	.	.	16e-X/LL	8e-\L	.	.
.	.	.	.	16b-/ 16dd-	.	.	.
.	.	.	.	16d-/	8d-\	.	.
.	.	.	.	16b-/ 16dd-	.	.	.
.	.	.	.	16gg/	8B-\J	.	.
.	.	.	.	16b-/JJ) 16dd-	.	.	.
*v	*v	*	*	*	*	*	*
*	*	*	*v	*v	*	*
!!LO:LB:g=original
=60	=60	=60	=60	=60	=60
4A-\ 4c	.	.	16e-/LL	.	.
.	.	.	(16cc/ 16ee-	.	.
.	.	.	16aa-/	.	.
.	.	.	16cc/ 16ee-	.	.
8r	.	.	16e-/	.	.
.	.	.	16cc/JJ 16ee-	.	.
4.AA-\ 4.A-	.	.	16e-/LL	.	.
.	.	.	16cc/ 16ee-	.	.
.	.	.	16aa-/	.	.
.	.	.	16cc/ 16ee-	.	.
.	.	.	16e-/	.	.
.	.	.	16cc/JJ 16ee-	.	.
4.EE-/ 4.E-	.	.	16e-/LL	.	.
.	.	.	16cc/ 16ee-	.	.
.	.	.	16aa-/	.	.
.	.	.	16cc/ 16ee-	.	.
.	.	.	16e-/	.	.
.	.	.	16cc/JJ 16ee-	.	.
4.CC/ 4.C	.	.	16e-/LL	.	.
.	.	.	16cc/ 16ee-	.	.
.	.	.	16aa-/	.	.
.	.	.	16cc/ 16ee-	.	.
.	.	.	16e-/	.	.
.	.	.	16cc/JJ 16ee-	.	.
=61	=61	=61	=61	=61	=61
*	*	*	*^	*	*
[2.AAA-/ [<2.AA-	.	.	4.e-/	16e-\LL	.	.
.	.	.	.	16cc\ 16ee-	.	.
.	.	.	.	16aa-\	.	.
.	.	.	.	16cc\ 16ee-	.	.
.	.	.	.	16e-\	.	.
.	.	.	.	16cc\JJ 16ee-	.	.
.	.	.	4f/	16f\LL	.	.
.	.	.	.	16cc\ 16ee-	.	.
.	.	.	.	16aa-\	.	.
.	.	.	.	16cc\ 16ee-	.	.
.	.	.	8e-/	16e-\	.	.
.	.	.	.	16cc\JJ 16ee-	.	.
2.AAA-/_ 2.AA-_<	.	.	4b-/	16b-\LL	.	.
.	.	.	.	16cc\ 16ee-	.	.
.	.	.	.	16aa-\	.	.
.	.	.	.	16cc\ 16ee-	.	.
.	.	.	8a-/	16a-\	.	.
.	.	.	.	16cc\JJ 16ee-	.	.
.	.	.	8aa-/	16aa-\LL	.	.
.	.	.	.	16cc\ 16ee-	.	.
.	.	.	8ccc/	16ccc\	.	.
.	.	.	.	16ee-\ 16aa-	.	.
.	.	.	8eee-/	16eee-\	.	.
.	.	.	.	16ee-\JJ 16aa- 16ccc	.	.
*	*	*	*v	*v	*	*
=62	=62	=62	=62	=62	=62
2.AAA-;</] 2.AA-]	.	.	2.aaa-;\)	.	.
2.r	.	.	2.r	.	.
==	==	==	==	==	==
*-	*-	*-	*-	*-	*-
!!!RDF**kern: > = above
!!!RDF**kern: < = below
!!!system-decoration: [(s1,s2)]
!!!ENC: Solarz Mateusz
!!!END: 2022-07-19
!!!ENC: Urszula Świątek
!!!END: 2022-08-18
